X:1
T:Partita I (A = 415 Hz)
T:BWV 825
T:J. S. Bach
%%score { ( 1 2 5 6 ) | ( 3 4 ) }
L:1/8
Q:1/4=72
M:4/4
K:Bb
V:1 treble nm="ハープシーコード"
V:2 treble 
V:5 treble 
V:6 treble 
V:3 bass 
V:4 bass 
V:1
"^Adagio""^Praeludium" z/ B/c/8B/8A/4B/ c/B/d/B/ e/B/c/8B/8A/4B/ d/B/e/B/ | %1
 f/B/c/8B/8A/4B/ g/B/a/B/ b/a/4g/4f/b/ c/4d/4ed/4c/4 | %2
 d/4c/4BG/4A/4 B/4c/4dc/4B/4 c/4B/4AF/4G/4 A/4B/4cB/4A/4 | B/4A/4GA/4B/4 c/4d/4=e/4f/4g/B/- BA Bc | %4
 dc/B/ cd ed/=e/ fg- | g f2 =e f4- | ff dB eg c'2- | c'f b2- ba/g/ a/^f/g | ^ff ga Bf ab | %9
 ce dc B/4c/4dc/4B/4 A/4B/4cB/4A/4 | B/d/e/8d/8c/4d/ b2- ba- a/gf/ | %11
 =e/c/d/8c/8=B/4c/ d/c/e/c/ f/c/d/8c/8B/4c/ e/c/f/c/ | %12
 g/4f/4=ed/4c/4 b/4a/4gf/4e/4 c'/4e/4f/4g/4f/4e/4f/4d/4 f/4e/4f/4e/4f/4e/4f/ | %13
 f3/2A/4B/4 c/4d/4ed/4c/4 d/4c/4Bd/4e/4 f/4g/4_ag/4f/4 | %14
 g/4f/4ed/4e/4 f/4g/4a/4b/4c'/e/ f/4e/4dc/4d/4 e/4f/4g/4a/4b/d/ | %15
 e/4d/4cd/4e/4 d/4c/4B/4A/4B/4A/4G/4F/4 d2 d>c | B/A/g fe db ag | %17
 fe dc d/4c/4B/e/4d/4c/BB/8A/8B/8A/8B/8A/8B/4 | B/B/c/8B/8A/4B/ c/B/d/B/ e/B/c/8B/8A/4B/ d/B/e/B/ | %19
 f/B/c/8B/8A/4B/ g/B/a/B/ b/a/4g/4f/b/ g/b/f/a/ | !fermata![Bdfb]8 | %21
[M:4/4]"^Allemande"[Q:1/4=120] z4 z2 z z/ f/ | f/d/B/A/ B/d/F/B/ D/F/B,/D/ F/_A/d/f/ | %23
 g/e/B/A/ B/e/G/B/ E/G/B,/E/ G/B/e/g/ | a/e/c/B/ c/e/A/c/ E/A/C/E/ A/c/e/a/ | %25
 b/f/d/c/ d/f/B/d/ F/B/D/F/ z/ GF/ | z/ c/=E/D/ E/G/C/E/ z/ A,/C/_E/ D/C/c/D/ | %27
 E/G/c/=B/ c/e/A/c/ _G/A/c/e/ d/c/a/c/ | z/ c/B/A/ B/d/=e/f/ g/c/B/A/ B/g/B/f/ | %29
 B/f/=e/d/ e/g/a/b/ c'/f/e/d/ e/c'/e/b/ | =e/b/a/g/ f/a/e/a/ d/a/d/c/ B/d/A/d/ | %31
 G/a/g/f/ =e/g/d/g/ c/g/c/B/ A/c/G/c/ | F/g/f/=e/ d/f/c/f/ B/f/B/A/ G/B/F/B/ | %33
 F/4=E/4F/4E/4F/4E/4F/4E/4 z C FG/A/ BB/4A/4G/ | A2 z/ C/F/G/ A/F/=B/c/ d/F/c/B/ | %35
 c2 z G cd/=e/ ff/4e/4d/ | =ef/g/ _aa/4g/4f/ ga/b/ c'c'/4b/4a/ | %37
 b/g/=e/c/ B/G/c/e/ f/c/A/F/ z/ G/B/e/ | f>e d>d z/ d/c z/ A/B | AF z/ F=E/ [CF]3 z/ f/ | %40
 f/d/B/A/ B/d/F/B/ D/F/B,/D/ F/_A/d/f/ | g/e/B/A/ B/e/G/B/ E/G/B,/E/ G/B/e/g/ | %42
 a/e/c/B/ c/e/A/c/ E/A/C/E/ A/c/e/a/ | b/f/d/c/ d/f/B/d/ F/B/D/F/ z/ GF/ | %44
 z/ c/=E/D/ E/G/C/E/ z/ A,/C/_E/ D/C/c/D/ | E/G/c/=B/ c/e/A/c/ _G/A/c/e/ d/c/a/c/ | %46
 z/ c/B/A/ B/d/=e/f/ g/c/B/A/ B/g/B/f/ | B/f/=e/d/ e/g/a/b/ c'/f/e/d/ e/c'/e/b/ | %48
 =e/b/a/g/ f/a/e/a/ d/a/d/c/ B/d/A/d/ | G/a/g/f/ =e/g/d/g/ c/g/c/B/ A/c/G/c/ | %50
 F/g/f/=e/ d/f/c/f/ B/f/B/A/ G/B/F/B/ | F/4=E/4F/4E/4F/4E/4F/4E/4 z C FG/A/ BB/4A/4G/ | %52
 A2 z/ C/F/G/ A/F/=B/c/ d/F/c/B/ | c2 z G cd/=e/ ff/4e/4d/ | =ef/g/ _aa/4g/4f/ ga/b/ c'c'/4b/4a/ | %55
 b/g/=e/c/ B/G/c/e/ f/c/A/F/ z/ G/B/e/ | f>e d>d z/ d/c z/ A/B | AF z/ F=E/ [CF]3 z/ c/ | %58
 c/A/F/=E/ F/A/C/F/[I:staff +1] A,/C/F,/A,/ C/[I:staff -1]_E/A/B/ | %59
 c/A/E/D/ E/A/C/E/[I:staff +1] A,/C/^F,/A,/ D/[I:staff -1]^F/A/c/ | B4- B/B/A/G/ A/c/^F/G/ | %61
 ^F2 C/E/A,/C/[I:staff +1] ^F,/A,/[I:staff -1]D/F/ G/D/A/D/ | B2 F/_A/D/F/ =B,/D/G/=B/ c/G/d/F/ | %63
 E/G/A/=B/ c/e/_B/e/ _A/e/A/G/ F/A/E/A/ | D/F/G/A/ B/d/^G/d/ =G/d/G/F/ E/G/D/G/ | %65
 C/E/F/G/ _A/c/G/c/ F/c/F/E/ D/F/C/F/ | =B,2 z G, CD/E/ FF/4E/4D/ | %67
 E2 z/ G,/C/D/ E/C/^F/G/ A/C/G/F/ | G2 z D GA/=B/ cc/4B/4A/ | =Bc/d/ ee/4d/4c/ de/f/ gg/4f/4e/ | %70
 f/d/=B/G/ F/D/G/B/ c/G/E/C/ z/ D/F/B/ | c/G/E/C/ E/G/c/d/ e/c/A/G/ A/c/F/c/ | %72
 d/f/B/A/ B/d/f/g/ _a/f/d/c/ d/f/B/f/ | g/b/e/d/ e/g/a/b/ c'/f/e/d/ e/f/c/e/ | %74
 d/_A/G/F/ =E/G/B/G/ =A/e/d/c/ d/B/F/A/ | B/d/f/g/ _a/f/d/B/ z/ B/e/g/ b/g/=e/_d/ | %76
 z/ c/e/a/ c'/a/_g/e/ d/b/=g/=e/ f/B/A/_e/ | d/_A/G/c/ B/F/E/=A/ [FB]3 z/ c/ | %78
 c/A/F/=E/ F/A/C/F/[I:staff +1] A,/C/F,/A,/ C/[I:staff -1]_E/A/B/ | %79
 c/A/E/D/ E/A/C/E/[I:staff +1] A,/C/^F,/A,/ D/[I:staff -1]^F/A/c/ | B4- B/B/A/G/ A/c/^F/G/ | %81
 ^F2 C/E/A,/C/[I:staff +1] ^F,/A,/[I:staff -1]D/F/ G/D/A/D/ | B2 F/_A/D/F/ =B,/D/G/=B/ c/G/d/F/ | %83
 E/G/A/=B/ c/e/_B/e/ _A/e/A/G/ F/A/E/A/ | D/F/G/A/ B/d/^G/d/ =G/d/G/F/ E/G/D/G/ | %85
 C/E/F/G/ _A/c/G/c/ F/c/F/E/ D/F/C/F/ | =B,2 z G, CD/E/ FF/4E/4D/ | %87
 E2 z/ G,/C/D/ E/C/^F/G/ A/C/G/F/ | G2 z D GA/=B/ cc/4B/4A/ | =Bc/d/ ee/4d/4c/ de/f/ gg/4f/4e/ | %90
 f/d/=B/G/ F/D/G/B/ c/G/E/C/ z/ D/F/B/ | c/G/E/C/ E/G/c/d/ e/c/A/G/ A/c/F/c/ | %92
 d/f/B/A/ B/d/f/g/ _a/f/d/c/ d/f/B/f/ | g/b/e/d/ e/g/a/b/ c'/f/e/d/ e/f/c/e/ | %94
 d/_A/G/F/ =E/G/B/G/ =A/e/d/c/ d/B/F/A/ | B/d/f/g/ _a/f/d/B/ z/ B/e/g/ b/g/=e/_d/ | %96
 z/ c/e/a/ c'/a/_g/e/ d/b/=g/=e/ f/B/A/_e/ | d/_A/G/c/ B/F/E/=A/ [FB]3 z | %98
[M:3/4]"^Corrente" z4 z B | (3BdA (3BFB (3dfA | (3BdA (3BFB (3egA | (3Bfc (3dBd (3fbd | %102
 (3gAc (3fGB (3eFA | d2- (3dBd (3fdc | (3BdA (3BGB (3dgb | =e2- (3ece (3ged | %106
 (3c=e=B (3cAc (3eac' | f2- (3fdf a2- | (3adc (3Bdg (3cBA- | (3ABA (3GB=e (3AGF- | %110
 (3FGF (3=EGc (3FED | =E2- (3E z =e (6:4:6f/e/f/e/d/e/ | (3fcA (3:2:2F2 f (6:4:6g/f/g/f/=e/f/ | %113
 (3g=eB (3:2:2G2 g (6:4:6a/g/a/g/f/g/ | (3_a=ef (3dfa (3=bc'f | (3=edc (3gec (3BAG | %116
 (3AcG (3AFA (3cfG | (3FA=E (3FDF (3AdE | (3DFC (3DB,D (3FBC | B,2- (3:2:2B,2 G (3:2:2B,2 G | %120
 (6:4:6C/B,/C/B,/C/B,/ (6:4:5C/B,/C/B,/B, (3GA,B, | (3A,CB, (3CF=E (3BAG | (3FA=E (3FCF (3AcE | %123
 (3FA=E (3FCF (3AcE | (3FA=E (3FCF (3Ac_E | (3DBG (6:4:6F/=E/F/E/F/E/ (6:4:5F/E/F/E/F | %126
 [A,CF]4- (3:2:2[A,CF]2 B | (3BdA (3BFB (3dfA | (3BdA (3BFB (3egA | (3Bfc (3dBd (3fbd | %130
 (3gAc (3fGB (3eFA | d2- (3dBd (3fdc | (3BdA (3BGB (3dgb | =e2- (3ece (3ged | %134
 (3c=e=B (3cAc (3eac' | f2- (3fdf a2- | (3adc (3Bdg (3cBA- | (3ABA (3GB=e (3AGF- | %138
 (3FGF (3=EGc (3FED | =E2- (3E z =e (6:4:6f/e/f/e/d/e/ | (3gcA (3:2:2F2 f (6:4:6g/f/g/f/=e/f/ | %141
 (3g=eB (3:2:2G2 g (6:4:6a/g/a/g/f/g/ | (3_a=ef (3dfa (3=bc'f | (3=edc (3gec (3BAG | %144
 (3AcG (3AFA (3cfG | (3FA=E (3FDF (3AdE | (3DFC (3DB,D (3FBC | B,2- (3:2:2B,2 G (3:2:2B,2 G | %148
 (6:4:6C/B,/C/B,/C/B,/ (6:4:5C/B,/C/B,/B, (3GA,B, | (3A,CB, (3CF=E (3BAG | (3FA=E (3FCF (3AcE | %151
 (3FA=E (3FCF (3AcE | (3FA=E (3FCF (3Ac_E | (3DBG (6:4:6F/=E/F/E/F/E/ (6:4:5F/E/F/E/F | %154
 [A,CF]4- (3:2:2[A,CF]2 F | (3FA=E (3FCF (3AcG | (3AcG (3A^FA (3ceB | (3ceB (3cGc (3^fad | %158
 (3bc'e (3abd (3gac | (6:4:6g/^f/g/f/g/f/ (6:4:4g/f/df (3adc | (3BdA (3BGB (3dgb | %161
 (6:4:6f/e/f/e/f/e/ (6:4:4f/e/ce (3gcB | (3AcG (3AFA (3cfa | %163
 (6:4:6e/d/e/d/e/d/ (6:4:4e/d/Bd (3fB_A | (3:2:2G2 f (3:2:2e2 b (3:2:2_a2 d | %165
 (3:2:2E2 d (3:2:2c2 g (3:2:2f2 =B | (3:2:2C2 B (3:2:2A2 e (3:2:2d2 G | (3^FAc (3edc (3a z z | %168
 (3DGB (3dcB (3g z z | (3^C=EG (3BAG (3:2:2=e2 G | (3^FGA (3DFA (3cBA | (3gfe (3dcB (3Ac^F | %172
 G2- (3G z B (3:2:2D2 E | (3F_AE (3FAd (3:2:2f2 A | (3GBF (3GBe g2- | (3gfe (3def (3GAB | %176
 (6:4:6B/A/B/A/B/A/ (3z z A (6:4:6B/A/B/A/A/B/ | (3BFD (3:2:2B,2 B (6:4:6c/B/c/B/B/c/ | %178
 (3cGE (3:2:2C2 c (6:4:6d/c/d/c/c/d/ | (3_dAB (3GBd (3=efB | (6:4:4B/A/GF e2- (3edc | %181
 (3_dgc (3dAB (6:4:4F/E/DE | (3DFC (3DB,D (3FBF | (3FBE (3FDF (3BdA | (3BdA (3BFB (3df_A | %185
 (3Gec (6:4:6B/A/B/A/B/A/ (6:4:3B/A/ B2 | [DFB]4- (3:2:2[DFB]2 F | (3BdA (3BFB (3dfA | %188
 (3BdA (3BFB (3egA | (3Bfc (3dBd (3fbd | (3gAc (3fGB (3eFA | d2- (3dBd (3fdc | (3BdA (3BGB (3dgb | %193
 =e2- (3ece (3ged | (3c=e=B (3cAc (3eac' | f2- (3fdf a2- | (3adc (3Bdg (3cBA- | %197
 (3ABA (3GB=e (3AGF- | (3FGF (3=EGc (3FED | =E2- (3E z =e (6:4:6f/e/f/e/d/e/ | %200
 (3gcA (3:2:2F2 f (6:4:6g/f/g/f/=e/f/ | (3g=eB (3:2:2G2 g (6:4:6a/g/a/g/f/g/ | %202
 (3_a=ef (3dfa (3=bc'f | (3=edc (3gec (3BAG | (3AcG (3AFA (3cfG | (3FA=E (3FDF (3AdE | %206
 (3DFC (3DB,D (3FBC | B,2- (3:2:2B,2 G (3:2:2B,2 G | %208
 (6:4:6C/B,/C/B,/C/B,/ (6:4:5C/B,/C/B,/B, (3GA,B, | (3A,CB, (3CF=E (3BAG | (3FA=E (3FCF (3AcE | %211
 (3FA=E (3FCF (3AcE | (3FA=E (3FCF (3Ac_E | (3DBG (6:4:6F/=E/F/E/F/E/ (6:4:5F/E/F/E/F | %214
 [A,CF]4- (3:2:2[A,CF]2 F | (3FA=E (3FCF (3AcG | (3AcG (3A^FA (3ceB | (3ceB (3cGc (3^fad | %218
 (3bc'e (3abd (3gac | (6:4:6g/^f/g/f/g/f/ (6:4:4g/f/df (3adc | (3BdA (3BGB (3dgb | %221
 (6:4:6f/e/f/e/f/e/ (6:4:4f/e/ce (3gcB | (3AcG (3AFA (3cfa | %223
 (6:4:6e/d/e/d/e/d/ (6:4:4e/d/Bd (3fB_A | (3:2:2G2 f (3:2:2e2 b (3:2:2_a2 d | %225
 (3:2:2E2 d (3:2:2c2 g (3:2:2f2 =B | (3:2:2C2 B (3:2:2A2 e (3:2:2d2 G | (3^FAc (3edc (3a z z | %228
 (3DGB (3dcB (3g z z | (3^C=EG (3BAG (3:2:2=e2 G | (3^FGA (3DFA (3cBA | (3gfe (3dcB (3Ac^F | %232
 G2- (3G z B (3:2:2D2 E | (3F_AE (3FAd (3:2:2f2 A | (3GBF (3GBe g2- | (3gfe (3def (3GAB | %236
 (6:4:6B/A/B/A/B/A/ (3z z A (6:4:6B/A/B/A/A/B/ | (3BFD (3:2:2B,2 B (6:4:6c/B/c/B/B/c/ | %238
 (3cGE (3:2:2C2 c (6:4:6d/c/d/c/c/d/ | (3_dAB (3GBd (3=efB | (6:4:4B/A/GF e2- (3edc | %241
 (3_dgc (3dAB (6:4:4F/E/DE | (3DFC (3DB,D (3FBF | (3FBE (3FDF (3BdA | (3BdA (3BFB (3df_A | %245
 (3Gec (6:4:6B/A/B/A/B/A/ (6:4:3B/A/ B2 | [DFB]4- (3:2:2[DFB]2 z | z6 | %248
[M:3/4]"^Sarabande"[Q:1/4=80] d>d d-d/4c/4B/4A/4 B/d/f/G/ | _A/4G/4AA/ A-A/4B/4A/4G/4 A/d/f/A/ | %250
 G/e/4d/4c/4d/4e/ F/d/A/B/ E/A/4B/4c/E/ | F/4E/4F/4E/4F/4E/4D/ D-D/4F/4E/4D/4 E/4F/4G/4A/4B/G/ | %252
 F/=E/G c-c/4d/4=e/4d/4 c/B/A/4B/4G/ | G/^F/A/c/4e/4 e3/2d/4c/4 d/4c/4B/c/4B/4A/ | %254
 (6:4:4B3/4A/4G/4^F/4G/A/ A/G/4A/4B/4c/4d/ d/=e/4f/4g/4f/4e/4f/4 | %255
 g/4c/4B/4A/4B/g/ g-g/4f/4=e/4d/4 c/B/c/4B/4A/ | A/C/4=E/4F/A/ A/F/4G/4A/c/ c/A/4B/4c/f/ | %257
 f/a/4g/4f/4=e/4d/ c/f/4e/4d/4c/4B/ A/c/4B/4A/4G/4F/ | %258
 d/4c/4B/4A/4B/G/ (6:4:4F3/4G/4F/4=E/4F/4D/4B/ F/4E/4F/4E/4F/4E/4F/ | F2 [A,CF]4 | %260
 d>d d-d/4c/4B/4A/4 B/d/f/G/ | _A/4G/4AA/ A-A/4B/4A/4G/4 A/d/f/A/ | %262
 G/e/4d/4c/4d/4e/ F/d/A/B/ E/A/4B/4c/E/ | F/4E/4F/4E/4F/4E/4D/ D-D/4F/4E/4D/4 E/4F/4G/4A/4B/G/ | %264
 F/=E/G c-c/4d/4=e/4d/4 c/B/A/4B/4G/ | G/^F/A/c/4e/4 e3/2d/4c/4 d/4c/4B/c/4B/4A/ | %266
 (6:4:4B3/4A/4G/4^F/4G/A/ A/G/4A/4B/4c/4d/ d/=e/4f/4g/4f/4e/4f/4 | %267
 g/4c/4B/4A/4B/g/ g-g/4f/4=e/4d/4 c/B/c/4B/4A/ | A/C/4=E/4F/A/ A/F/4G/4A/c/ c/A/4B/4c/f/ | %269
 f/a/4g/4f/4=e/4d/ c/f/4e/4d/4c/4B/ A/c/4B/4A/4G/4F/ | %270
 d/4c/4B/4A/4B/G/ (6:4:4F3/4G/4F/4=E/4F/4D/4B/ F/4E/4F/4E/4F/4E/4F/ | F2 [A,CF]4 | %272
 c>c c-c/4d/4c/4B/4 c/4B/4A/4B/4A/4G/4A/8G/8F/4 | %273
 f>f f-f/4g/4f/4e/4 f/4e/4d/4e/8d/8c/8d/8c/8B/8c/4B/4 | B/F/4A/4B/d/ e2- e/c/4d/4e/4d/4c/ | %275
 d>d d-d/4c/4B/4A/4 B/4F/4B/4c/4d/4e/4f/4g/4 | %276
 _a/4g/4f/4e/4d/4e/4f/ =B/d/f/a/ a/4g/4a/4g/4g/4f/4e/4d/4 | %277
 e/4d/4c/4B/4_A/4B/4c/ F/A/c/e/ e/4d/4e/4d/4e/4d/4c/4=B/4 | %278
 c/E/F/8E/8D/E/4 A/^F/F/8=E/8D/E/4 e/=B/c/8B/8A/B/4 | c>c c-c/4G/4A/4=B/4 c/4d/4c/4B/4c/d/ | %280
 d/4e/4f/4e/4f/4e/4f/4e/4 f/4e/4f/4e/4f/4e/4f/4e/4 f/4e/4f/4e/4f/4e/4f/4e/4 | %281
 f/4e/4f/4e/4f/4e/4f/4e/4 f/4e/4f/4e/4f/4e/4f/4e/4 f/4e/4f/4e/4f/4e/4f/4e/4 | %282
 f/4e/4d/4c/4d/b/- b/a/4g/4a/c/- c/B/4A/4B/g/ | BB/8A/8G/4A/4c/4 F4- | %284
 F/B,/4C/4D/F/ F/D/4E/4F/_A/ A2- | A/G/4_A/4B/_d/ d/B/4c/4d/g/ g/B/=A/B/- | %286
 B/4D/4E/4F/4G/4A/4B/4c/4 d/e/4d/4c/4d/4e/4c/4 B/G/A/8G/8A/4B/ | B2 [DFB]4 | %288
 c>c c-c/4d/4c/4B/4 c/4B/4A/4B/4A/4G/4A/8G/8F/4 | %289
 f>f f-f/4g/4f/4e/4 f/4e/4d/4e/8d/8c/8d/8c/8B/8c/4B/4 | B/F/4A/4B/d/ e2- e/c/4d/4e/4d/4c/ | %291
 d>d d-d/4c/4B/4A/4 B/4F/4B/4c/4d/4e/4f/4g/4 | %292
 _a/4g/4f/4e/4d/4e/4f/ =B/d/f/a/ a/4g/4a/4g/4g/4f/4e/4d/4 | %293
 e/4d/4c/4B/4_A/4B/4c/ F/A/c/e/ e/4d/4e/4d/4e/4d/4c/4=B/4 | %294
 c/E/F/8E/8D/E/4 A/^F/F/8=E/8D/E/4 e/=B/c/8B/8A/B/4 | c>c c-c/4G/4A/4=B/4 c/4d/4c/4B/4c/d/ | %296
 d/4e/4f/4e/4f/4e/4f/4e/4 f/4e/4f/4e/4f/4e/4f/4e/4 f/4e/4f/4e/4f/4e/4f/4e/4 | %297
 f/4e/4f/4e/4f/4e/4f/4e/4 f/4e/4f/4e/4f/4e/4f/4e/4 f/4e/4f/4e/4f/4e/4f/4e/4 | %298
 f/4e/4d/4c/4d/b/- b/a/4g/4a/c/- c/B/4A/4B/g/ | BB/8A/8G/4A/4c/4 F4- | %300
 F/B,/4C/4D/F/ F/D/4E/4F/_A/ A2- | A/G/4_A/4B/_d/ d/B/4c/4d/g/ g/B/=A/B/- | %302
 B/4D/4E/4F/4G/4A/4B/4c/4 d/e/4d/4c/4d/4e/4c/4 B/G/A/8G/8A/4B/ | B2 !fermata![DFB]4 | z6 | %305
[M:3/4][Q:1/4=160]"^Menuet I" dB AB FB | dB eB fB | cA GA FA | cF dF eF | d_A eG fF | gf ae bd | %311
 ce dc dB | cA GA Fe | dB AB FB | dB eB fB | cA GA FA | cF dF eF | dc =eB fA | GB FB =EB | %319
 Ac AF C=E | F3 G/A/ B/A/B/c/ | dB AB FB | dB eB fB | cA GA FA | cF dF eF | d_A eG fF | gf ae bd | %327
 ce dc dB | cA GA Fe | dB AB FB | dB eB fB | cA GA FA | cF dF eF | dc =eB fA | GB FB =EB | %335
 Ac AF C=E | F6 | af =ef cf | af bf af | ge de ce | fd fc f=B | ce _gc ac | Ac _Gc Dc | Be dB cA | %344
 G3 A/B/ A/G/F/E/ | DB AB fB | _aB gB fB | EB AB gB | EB FB GB | cB d_A eG | fe gd ac | ba gf ed | %352
 cB AG FE | Df gf cf | =Bf Af Gf | Ce fe Be | Ae Ge Fe | df dB FA | B2- B/c/d/e/ f/=e/f/g/ | %359
 af =ef cf | af bf af | ge de ce | fd fc f=B | ce _gc ac | Ac _Gc Dc | Be dB cA | %366
 G3 A/B/ A/G/F/E/ | DB AB fB | _aB gB fB | EB AB gB | EB FB GB | cB d_A eG | fe gd ac | ba gf ed | %374
 cB AG FE | Df gf cf | =Bf Af Gf | Ce fe Be | Ae Ge Fe | df dB FA | B6 |"^Menuet II" B4 F2 | %382
 G2 _A2 z2 | G2 e2 d2 | c2 BA GF | B4 F2 | G2 _A2 z2 | G2 e2 d2 |{d} c6 | %389
[M:3/4]"_Menuet II" B4 F2 | G2 _A2 z2 | G2 e2 d2 | c2 BA GF | B4 F2 | G2 _A2 z2 | G2 e2 d2 | %396
{d} c6 | f4 c2 | d2 e2 z2 | ^F2 d2 c2 | B2 AB G2 | e4 de/4d/4e/4d/4 | e/4d/4e/4f/4g f2 z2 | %403
{B} A4 B2 | B6 | f4 c2 | d2 e2 z2 | ^F2 d2 c2 | B2 AB G2 | e4 de/4d/4e/4d/4 | e/4d/4e/4f/4g f2 z2 | %411
{B} A4 B2 | B6 |[M:3/4]"^Menuet I da capo" dB AB FB | dB eB fB | cA GA FA | cF dF eF | d_A eG fF | %418
 gf ae bd | ce dc dB | cA GA Fe | dB AB FB | dB eB fB | cA GA FA | cF dF eF | dc =eB fA | %426
 GB FB =EB | Ac AF C=E | F6 | af =ef cf | af bf af | ge de ce | fd fc f=B | ce _gc ac | Ac _Gc Dc | %435
 Be dB cA | G3 A/B/ A/G/F/E/ | DB AB fB | _aB gB fB | EB AB gB | EB FB GB | cB d_A eG | fe gd ac | %443
 ba gf ed | cB AG FE | Df gf cf | =Bf Af Gf | Ce fe Be | Ae Ge Fe | df dB FA | !fermata!B6 | z6 | %452
[M:4/4]"^Giga" f2[I:staff +1] B,2 B,,2[I:staff -1] f2 | g2 _A2 G2 g2 | c2 _G2 F2 c2 | %455
 d2[I:staff +1] B,2 B,,2[I:staff -1] g2 | g2 A2 A/4G/4A/4G/4A/4G/4A/4G/4 F2 | =E2 G2 C2 =e2 | %458
 f2 G2 G/4F/4G/4F/4G/4F/4G/4F/4 =E2 | D2 F2 B,2 d2 | =e2 _D2 C2 e2 | f2 _D2 C2 f2 | g2 _D2 C2 g2 | %463
 _a2 _D2 C2 a2 | =B2[I:staff +1] _A,2 G,2[I:staff -1] B2 | c2[I:staff +1] _D,2 C,2[I:staff -1] B2 | %466
 _A2[I:staff +1] =B,2 C2 C,2 | F,,2[I:staff -1] F2 f4 | f2[I:staff +1] B,2 B,,2[I:staff -1] f2 | %469
 g2 _A2 G2 g2 | c2 _G2 F2 c2 | d2[I:staff +1] B,2 B,,2[I:staff -1] g2 | %472
 g2 A2 A/4G/4A/4G/4A/4G/4A/4G/4 F2 | =E2 G2 C2 =e2 | f2 G2 G/4F/4G/4F/4G/4F/4G/4F/4 =E2 | %475
 D2 F2 B,2 d2 | =e2 _D2 C2 e2 | f2 _D2 C2 f2 | g2 _D2 C2 g2 | _a2 _D2 C2 a2 | %480
 =B2[I:staff +1] _A,2 G,2[I:staff -1] B2 | c2[I:staff +1] _D,2 C,2[I:staff -1] B2 | %482
 _A2[I:staff +1] =B,2 C2 C,2 | F,,2[I:staff -1] F2 f4 | a2 E2[I:staff +1] F,2[I:staff -1] a2 | %485
 b2 _A2[I:staff +1] B,2[I:staff -1] b2 | g2 B2 A2 g2 | ^f2 G2 A2 f2 | g2 E2 D2 g2 | a2 E2 D2 a2 | %490
 b2 E2 D2 b2 | c'2 E2 D2 c'2 | b2 ^f2 g2 ^c2 | d2 G2 ^F2 E2 | D2 ^C2 D2[I:staff +1] D,2 | %495
 G,,2 D,2 G,2 B,2 |[I:staff -1] D2 F2 B2 d2 | E2 B2 g2 D2 | C2 F2 B,2 =e2 | f2 F2 f2 F2 | %500
 e2 F2 e2 F2 | d2 F2 d2 F2 | _d2 =E2 d2 E2 | c2 E2 c2 E2 | _c2 D2 c2 D2 | B2 _D2 B2 D2 | %506
 A2 C2 A2 C2 | G2 B,2 G2 B,2 | A2[I:staff +1] _G,2 F,2[I:staff -1] A2 | %509
 B2[I:staff +1] _G,2 F,2[I:staff -1] B2 | c2[I:staff +1] _G,2 F,2[I:staff -1] c2 | %511
 _d2[I:staff +1] _G,2 F,2[I:staff -1] d2 | =e2[I:staff +1] _D,2 C,2[I:staff -1] e2 | %513
 f2[I:staff +1] _G,,2 F,,2[I:staff -1] e2 | _d2[I:staff +1] =E,2 F,2 F,,2 | %515
 B,,2[I:staff -1] B2 b4 | a2 E2[I:staff +1] F,2[I:staff -1] a2 | %517
 b2 _A2[I:staff +1] B,2[I:staff -1] b2 | g2 B2 A2 g2 | ^f2 G2 A2 f2 | g2 E2 D2 g2 | a2 E2 D2 a2 | %522
 b2 E2 D2 b2 | c'2 E2 D2 c'2 | b2 ^f2 g2 ^c2 | d2 G2 ^F2 E2 | D2 ^C2 D2[I:staff +1] D,2 | %527
 G,,2 D,2 G,2 B,2 |[I:staff -1] D2 F2 B2 d2 | E2 B2 g2 D2 | C2 F2 B,2 =e2 | f2 F2 f2 F2 | %532
 e2 F2 e2 F2 | d2 F2 d2 F2 | _d2 =E2 d2 E2 | c2 E2 c2 E2 | _c2 D2 c2 D2 | B2 _D2 B2 D2 | %538
 A2 C2 A2 C2 | G2 B,2 G2 B,2 | A2[I:staff +1] _G,2 F,2[I:staff -1] A2 | %541
 B2[I:staff +1] _G,2 F,2[I:staff -1] B2 | c2[I:staff +1] _G,2 F,2[I:staff -1] c2 | %543
 _d2[I:staff +1] _G,2 F,2[I:staff -1] d2 | =e2[I:staff +1] _D,2 C,2[I:staff -1] e2 | %545
 f2[I:staff +1] _G,,2 F,,2[I:staff -1] e2 | _d2[I:staff +1] =E,2 F,2 F,,2 | %547
 B,,2[I:staff -1] B2 !fermata!b4 |] %548
V:2
 D2 EF G2 FE | D2 EC D[I:staff +1] B,2 A, |[I:staff -1] B,D G2- GC F2- | F=E/D/ E2 F4- | F4 A B3 | %5
 A2 BG z cAF | B4- B2 z e | d2 z d c2- c>B | A/D/=E/8D/8C/4D/ E/D/^F/D/ G/D/E/8D/8C/4D/ F/D/G/D/ | %9
 Ac BA AG- G^F | G z z/ d/e/8d/8c/4d/ g/cc/ dB- | B=EFG AFGA | B=E FG A2 G2 | %13
 A[I:staff +1]C B,F,[I:staff -1] B,4- |[I:staff +1] B,G, C2- CF, B,2- | %15
 B,A,/G,/ A,2[I:staff -1] z/4 F/4G/4A/4B/F/ G/D/E- | Ee dc Bd cB | Ac B2- BC DE | DD EF z EDC | %19
 B,F EE Dd[ce][ce] | x8 |[M:4/4] x8 | x8 | x8 | x8 | x8 | x8 | x8 | x8 | x8 | x8 | x8 | x8 | x8 | %34
 z/ F/=E/D/[I:staff +1] C/B,/A,/G,/[I:staff -1] z4 | z/ A/G/F/ =E/D/C/B,/ z4 | x8 | x8 | %38
 z/ B/A z/ A/B =E>F G>G | z/ =E/F/=B,/ C_B, A,3 z | x8 | x8 | x8 | x8 | x8 | x8 | x8 | x8 | x8 | %49
 x8 | x8 | x8 | z/ F/=E/D/[I:staff +1] C/B,/A,/G,/[I:staff -1] z4 | z/ A/G/F/ =E/D/C/B,/ z4 | x8 | %55
 x8 | z/ B/A z/ A/B =E>F G>G | z/ =E/F/=B,/ C_B, A,3 z | x8 | x8 | z/ A/G/^F/ G/B/D/=F/ E4 | %61
 z/ D/C/B,/ z2 z4 | z/ G/F/E/ z2 z4 | x8 | x8 | x8 | x8 | %67
 z/ C/=B,/A,/[I:staff +1] G,/F,/E,/D,/[I:staff -1] z4 | %68
 z/ E/D/C/[I:staff +1] =B,/A,/G,/F,/[I:staff -1] z4 | x8 | x8 | x8 | x8 | x8 | x8 | x8 | x8 | %77
 z EDC D3 z | x8 | x8 | z/ A/G/^F/ G/B/D/=F/ E4 | z/ D/C/B,/ z2 z4 | z/ G/F/E/ z2 z4 | x8 | x8 | %85
 x8 | x8 | z/ C/=B,/A,/[I:staff +1] G,/F,/E,/D,/[I:staff -1] z4 | %88
 z/ E/D/C/[I:staff +1] =B,/A,/G,/F,/[I:staff -1] z4 | x8 | x8 | x8 | x8 | x8 | x8 | x8 | x8 | %97
 z EDC D3 x |[M:3/4] x6 | x6 | x6 | x6 | x6 | x6 | x6 | x6 | x6 | x6 | x6 | x6 | x6 | x6 | x6 | %113
 x6 | x6 | x6 | x6 | x6 | x6 | x6 | x6 | x6 | x6 | x6 | x6 | x6 | x6 | x6 | x6 | x6 | x6 | x6 | %132
 x6 | x6 | x6 | x6 | x6 | x6 | x6 | x6 | x6 | x6 | x6 | x6 | x6 | x6 | x6 | x6 | x6 | x6 | x6 | %151
 x6 | x6 | x6 | x6 | x6 | x6 | x6 | x6 | x6 | x6 | x6 | x6 | x6 | x6 | x6 | x6 | x6 | x6 | x6 | %170
 x6 | x6 | x6 | x6 | x6 | x6 | x6 | x6 | x6 | x6 | x6 | x6 | x6 | x6 | x6 | x6 | x6 | x6 | x6 | %189
 x6 | x6 | x6 | x6 | x6 | x6 | x6 | x6 | x6 | x6 | x6 | x6 | x6 | x6 | x6 | x6 | x6 | x6 | x6 | %208
 x6 | x6 | x6 | x6 | x6 | x6 | x6 | x6 | x6 | x6 | x6 | x6 | x6 | x6 | x6 | x6 | x6 | x6 | x6 | %227
 x6 | x6 | x6 | x6 | x6 | x6 | x6 | x6 | x6 | x6 | x6 | x6 | x6 | x6 | x6 | x6 | x6 | x6 | x6 | %246
 x6 | x6 |[M:3/4] [FB]/ z/ z [FB] z z2 | F2 [DF] z z2 | E2 D2[I:staff +1] C2 | %251
 C2 [F,B,]2[I:staff -1] z2 | z/ =E3/2 E z z2 | z/ ^F3/2 F z z2 | x6 | z2 [GBc] z z2 | x6 | x6 | %258
 x6 | x6 | [FB]2 [FB] z z2 | F2 [DF] z z2 | E2 D2[I:staff +1] C2 | C2 [F,B,]2[I:staff -1] z2 | %264
 z/ =E3/2 E z z2 | z/ ^F3/2 F z z2 | x6 | z2 [GBc] z z2 | x6 | x6 | x6 | x6 | x6 | x6 | %274
 z/ F3/2 z/ G/4A/4B/4A/4G/ A2 | z/4 c/4B/4A/4B [FB] z z2 | x6 | x6 | x6 | z2 [CEG] z z2 | x6 | x6 | %282
 x6 | x6 | x6 | x6 | x6 | x6 | x6 | x6 | z/ F3/2 z/ G/4A/4B/4A/4G/ A2 | z/4 c/4B/4A/4B [FB] z z2 | %292
 x6 | x6 | x6 | z2 [CEG] z z2 | x6 | x6 | x6 | x6 | x6 | x6 | x6 | x6 | x6 |[M:3/4] x6 | x6 | x6 | %308
 x6 | x6 | x6 | x6 | x6 | x6 | x6 | x6 | x6 | x6 | x6 | x6 | x6 | x6 | x6 | x6 | x6 | x6 | x6 | %327
 x6 | x6 | x6 | x6 | x6 | x6 | x6 | x6 | x6 | x6 | x6 | x6 | x6 | x6 | x6 | x6 | x6 | x6 | x6 | %346
 x6 | x6 | x6 | x6 | x6 | x6 | x6 | x6 | x6 | x6 | x6 | x6 | x6 | x6 | x6 | x6 | x6 | x6 | x6 | %365
 x6 | x6 | x6 | x6 | x6 | x6 | x6 | x6 | x6 | x6 | x6 | x6 | x6 | x6 | x6 | x6 | x6 | E2 F4 | %383
 G2 A2 B2 | A2 z4 | F4 z2 | E2 F4 | G2 A2 B2 | A6 |[M:3/4] x6 | E2 F4 | G2 A2 B2 | A2 z4 | F4 z2 | %394
 E2 F4 | G2 A2 B2 | A6 | A2 B2 c2 | B2 A2 G2 | ^F2 D2 A2 | G2 ^F2 G2 | B4 _A2 | G2 A2 B2 | F4 F2 | %404
 F6 | A2 B2 c2 | B2 A2 G2 | ^F2 D2 A2 | G2 ^F2 G2 | B4 _A2 | G2 A2 B2 | F4 F2 | F6 |[M:3/4] x6 | %414
 x6 | x6 | x6 | x6 | x6 | x6 | x6 | x6 | x6 | x6 | x6 | x6 | x6 | x6 | x6 | x6 | x6 | x6 | x6 | %433
 x6 | x6 | x6 | x6 | x6 | x6 | x6 | x6 | x6 | x6 | x6 | x6 | x6 | x6 | x6 | x6 | x6 | x6 | x6 | %452
[M:4/4] x8 | x8 | x8 | x8 | x8 | x8 | x8 | x8 | x8 | x8 | x8 | x8 | x8 | x8 | x8 | x8 | x8 | x8 | %470
 x8 | x8 | x8 | x8 | x8 | x8 | x8 | x8 | x8 | x8 | x8 | x8 | x8 | x8 | x8 | x8 | x8 | x8 | x8 | %489
 x8 | x8 | x8 | x8 | x8 | x8 | x8 | x8 | x8 | x8 | x8 | x8 | x8 | x8 | x8 | x8 | x8 | x8 | x8 | %508
 x8 | x8 | x8 | x8 | x8 | x8 | x8 | x8 | x8 | x8 | x8 | x8 | x8 | x8 | x8 | x8 | x8 | x8 | x8 | %527
 x8 | x8 | x8 | x8 | x8 | x8 | x8 | x8 | x8 | x8 | x8 | x8 | x8 | x8 | x8 | x8 | x8 | x8 | x8 | %546
 x8 | x8 |] %548
V:3
 B,8- | B,4- B,D, E,F, | B,, z z B, A,2 z D | G,2 z C z/ F,/G,/8F,/8=E,/4F,/ G,/F,/A,/F,/ | %4
 B,/F,/G,/8F,/8=E,/4F,/ A,/F,/B,/F,/ C/F,/G,/8F,/8E,/4F,/ D/F,/=E/F,/ | %5
 F/=E/4D/4C/F/ G,/4A,/4B,A,/4G,/4 A,/4G,/4F,A,/4B,/4 C/4D/4_ED/4C/4 | %6
 D/4C/4B,D/4E/4 F/4G/4_AG/4F/4 G/4F/4ED/4E/4 F/4G/4=A/4B/4c/E/ | %7
 F/4E/4DC/4D/4 E/4F/4G/4A/4B/D/ E/4D/4C/-C/4B,/4A,/4B,/4 C/4D/4E/4D/4C/4B,/4A,/4G,/4 | %8
 D/ z/ z z2 D, z z2 | z/ D,/E,/8D,/8^C,/4D,/ =E,/D,/^F,/D,/ G,B,, =C,D, | G,, G,2 F, =E,F,B,,G,, | %11
 C, z z2 C, z z2 | z C D=E FB, CC, | F,, z z2 z F,D,B,, | E,2 z E, D,2 z G, | C,2 z F, B,,D, E,C, | %16
 F,/F,,/G,,/8F,,/8E,,/4F,,/ G,,/F,,/A,,/F,,/ B,,/F,,/G,,/8F,,/8E,,/4F,,/ A,,/F,,/B,,/F,,/ | %17
 C,/F,,/G,,/8F,,/8E,,/4F,,/ D,/F,,/E,/F,,/ F,G,/E,/ F,F,, | z B,2 _A, [G,B,][G,B,] [F,A,][E,G,] | %19
 [D,F,][_A,D-] [G,D][_G,C] [F,B,]D,E,F, | !fermata![B,,,B,,]8 |[M:4/4] z4 z2 z z/ z/ | B,,2 z2 z4 | %23
 B,,2 z2 z4 | B,,2 z2 z4 | B,,2 z4 B,A, | [B,,G,]2 z2 [A,,^F,]2 z2 | [G,,G,]2 z2 z4 | %28
 G,, G,2 F, =E, =E2 D | C C,2 B,, A,, A,2 G, | F,[I:staff -1]FAc B[I:staff +1]B,[I:staff -1] DF | %31
[I:staff +1] =E,=EGB AA,CE | D,[I:staff -1]D FA G[I:staff +1]G, B,D | %33
 C,/C/B,/A,/ G,/F,/=E,/D,/ C,/A,/G,/F,/ E,/G,/C,/E,/ | C,, z z2 F,/=E,/D,/C,/ =B,,/G,/G,,/F,/ | %35
 C,, z z2 A,/C/F/=E/ _A,/D/C/=B,/ | G,/B,/_D/C/ F,/C/B,/_A,/ _F,/B,/A,/G,/ =F,/=E,/D,/C,/ | %37
[I:staff -1] =EG[I:staff +1] CB, A,B,CC, | z/ D/C z/ C/D z/ A,/B, z/ F,/G, | %39
 z/ G,/_A,- A,G, F,3 z | B,,2 z2 D/F/B,/D/ F/ z/ z | B,,2 z2 E/G/B,/E/ G/ z/ z | %42
 B,,2 z2 E/A/C/E/ A/ z/ z | B,,2 z4 B,A, | [B,,G,]2 z2 [A,,_G,]2 z2 | [G,,G,]2 z2 _G/A/ z z2 | %46
 G,, G,2 F, =E, =E2 D | C C,2 B,, A,, A,2 G, | F,FAc BB,DF | =E,=EGB AA,CE | D,DFA GG,B,D | %51
 C,/C/B,/A,/ G,/F,/=E,/D,/ C,/A,/G,/F,/ E,/G,/C,/E,/ | %52
 C,, z C/B,/A,/G,/ F,/=E,/D,/C,/ =B,,/G,/G,,/F,/ | C,, z =E/D/C/B,/ A,/C/F/E/ ^G,/D/C/=B,/ | %54
 G,/B,/_D/C/ F,/C/B,/_A,/ _F,/B,/A,/G,/ =F,/=E,/D,/C,/ | =EGCB, A,B,CC, | %56
 z/ D/C z/ C/D z/ A,/B, z/ F,/G, | z/ G,/_A,- A,G, F,3 z | F,,2 z2 z4 | ^F,,2 z2 z4 | %60
 G,,A,,B,,G,, C,B,,C,A,, | D,2 z2 z C,B,,A,, | G,,2 z2 z F,E,D, | C,C EG FF, _A,C | %64
 B,,B, DF EE, G,B, | _A,,_A, CE DD, F,A, | %66
 z/ G,/F,/E,/ D,/C,/=B,,/A,,/ G,,/E,/D,/C,/ B,,/D,/G,,/B,,/ | %67
 G,,, z z2 C,/B,,/A,,/G,,/ _G,,/D,/D,,/C,/ | G,,, z z2 E,/G,/C/D/ ^F,/E/D/C/ | %69
 G,/D/E/F/ A,/G/F/E/ _C/F/E/D/ =C/E/D/C/ | DF G,F, E,F, G,G,, | C,G, CB, A,C F,A, | %72
 B,,D, F,B, DF B,D | ED CB, A,C F,A, | B,D G,C F,B, E,F, | B,,_A, DF B,,B, EG | %76
 B,,C[I:staff -1] EA B/D/C/B,/ F[I:staff +1]F, | B,4 [B,,B,]3 z | F,,2 z2 z4 | ^F,,2 z2 z4 | %80
 G,,A,,B,,G,, C,B,,C,A,, | D,2 z2 z C,B,,A,, | G,,2 z2 z F,E,D, | C,C EG FF, _A,C | %84
 B,,B, DF EE, G,B, | _A,,_A, CE DD, F,A, | %86
 z/ G,/F,/E,/ D,/C,/=B,,/A,,/ G,,/E,/D,/C,/ B,,/D,/G,,/B,,/ | %87
 G,,, z z2 C,/B,,/A,,/G,,/ _G,,/D,/D,,/C,/ | G,,, z z2 E,/G,/C/D/ ^F,/E/D/C/ | %89
 G,/D/E/F/ A,/G/F/E/ _C/F/E/D/ =C/E/D/C/ | DF G,F, E,F, G,G,, | C,G, CB, A,C F,A, | %92
 B,,D, F,B, DF B,D | ED CB, A,C F,A, | B,D G,C F,B, E,F, | B,,_A, DF B,,B, EG | %96
 B,,C[I:staff -1] EA B/D/C/B,/ F[I:staff +1]F, | B,4 [B,,B,]3 z |[M:3/4] z4 z z | %99
 B,2- (3B, z D (3:2:2B,2 D | G,2- (3G, z E (3:2:2B,2 E | D,2- (3D, z F (3:2:2D2 F | %102
 (3:2:2E2 E, (3:2:2D,2 D (3:2:2C2 C, | (3B,,D,A,, (3B,,F,,B,, (3D,F,A,, | %104
 G,,2- (3:2:2G,,2 D, (3:2:2B,,2 G,, | (3C,=E,=B,, (3C,G,,C, (3E,G,_B,, | %106
 A,,2- (3:2:2A,,2 =E, (3:2:2C,2 A,, | (3D,F,C, (3D,A,,D, (3F,A,C, | %108
 (3:2:2B,,2 A, (3:2:2G,2 B,, (3:2:2A,,2 F, | (3:2:2G,,2 F, (3:2:2=E,2 G,, (3:2:2F,,2 D, | %110
 (3:2:2=E,,2 D, (3:2:2C,2 E,, (3:2:2D,,2 =B,, | (3C,,=E,,G,, (3C,=E,G, (3B,,A,,G,, | %112
 (3C,,F,,A,, (3C,F,A, (3C,B,,A,, | (3C,,G,,C, (3=E,G,B, (3E,D,C, | [C,,C,]2 z4 | %115
 [C,,C,]2 (3z z C, (3:2:2D,2 =E, | (3F,A,C (3F,A,C (3=E,A,C | (3D,F,A, (3D,F,A, (3C,F,A, | %118
 (3B,,D,F, (3B,,D,F, (3A,,D,F, | (3G,,B,,D, (3G,,B,,D, (3F,,B,,D, | %120
 (3=E,,G,,C, (3=E,G,F, (3_E,D,C, | (3:2:2F,2 D, (3:2:2A,,2 B,, (3:2:2C,2 C,, | %122
 (3:2:2F,,2 C, (3:2:2A,,2 C, (3:2:2F,,2 A,, | (3:2:2D,,2 C, (3:2:2A,,2 C, (3:2:2F,,2 A,, | %124
 (3:2:2A,,,2 C, (3:2:2A,,2 C, (3:2:2F,,2 A,, | (3:2:2B,,,2 B,, C,2 C,,2 | F,,4- (3:2:2F,,2 z | %127
 B,2- (3B, z D (3:2:2B,2 D | G,2- (3G, z E (3:2:2B,2 E | D,2- (3D, z F (3:2:2D2 F | %130
 (3:2:2E2 E, (3:2:2D,2 D (3:2:2C2 C, | (3B,,D,A,, (3B,,F,,B,, (3D,F,A,, | %132
 G,,2- (3:2:2G,,2 D, (3:2:2B,,2 G,, | (3C,=E,=B,, (3C,G,,C, (3E,G,_B,, | %134
 A,,2- (3:2:2A,,2 =E, (3:2:2C,2 A,, | (3D,F,C, (3D,A,,D, (3F,A,C, | %136
 (3:2:2B,,2 A, (3:2:2G,2 B,, (3:2:2A,,2 F, | (3:2:2G,,2 F, (3:2:2=E,2 G,, (3:2:2F,,2 D, | %138
 (3:2:2=E,,2 D, (3:2:2C,2 E,, (3:2:2D,,2 =B,, | (3C,,=E,,G,, (3C,=E,G, (3B,,A,,G,, | %140
 (3C,,F,,A,, (3C,F,A, (3C,B,,A,, | (3C,,G,,C, (3=E,G,B, (3E,D,C, | [C,,C,]2 z4 | %143
 [C,,C,]2 (3z z C, (3:2:2D,2 =E, | (3F,A,C (3F,A,C (3=E,A,C | (3D,F,A, (3D,F,A, (3C,F,A, | %146
 (3B,,D,F, (3B,,D,F, (3A,,D,F, | (3G,,B,,D, (3G,,B,,D, (3F,,B,,D, | %148
 (3=E,,G,,C, (3=E,G,F, (3_E,D,C, | (3:2:2F,2 D, (3:2:2A,,2 B,, (3:2:2C,2 C,, | %150
 (3:2:2F,,2 C, (3:2:2A,,2 C, (3:2:2F,,2 A,, | (3:2:2D,,2 C, (3:2:2A,,2 C, (3:2:2F,,2 A,, | %152
 (3:2:2A,,,2 C, (3:2:2A,,2 C, (3:2:2F,,2 A,, | (3:2:2B,,,2 B,, C,2 C,,2 | F,,4- (3:2:2F,,2 z | %155
 F,2- (3F, z A, (3:2:2C2 E | E,2- (3E, z ^F, (3:2:2A,2 C | D,2- (3D, z A, (3:2:2D2 ^F | %158
 (3:2:2G2 G, (3:2:2F,2 F (3:2:2E2 E, | (3D,^F,A,[I:staff -1] (3D^FA (3c[I:staff +1] z z | %160
 (3G,,B,,D, (3G,B,D (3F z z | (3C,E,G,[I:staff -1] (3CEG (3B[I:staff +1] z z | %162
 (3F,,A,,C, (3F,A,C (3E z z | (3B,,D,F,[I:staff -1] (3B,DF (3_A[I:staff +1] z z | %164
 (3z[I:staff -1] ED (3CEG (3FD[I:staff +1]B,- | (3B,CB, (3_A,CE (3DB,G,- | %166
 (3G,A,G, (3F,A,C (3B,G,E,- | (3E,CA, (3^F,G,A, (3E,D,C, | (3B,,G,D, (3B,,C,D, (3G,,^F,,=E,, | %169
 (3:2:2D,,2 ^A,, (3:2:2D,,2 A,, (3:2:2D,,2 A,, | D,,2- (3D,, z E, (3:2:2D,2 C, | %171
 (3:2:2B,,2 ^F, (3:2:2G,2 C, (3:2:2D,2 D,, | (3G,,B,,^F,, (3G,,D,,G,, (3B,,D,G,, | %173
 D,,2 (3z z B,, (3D,F,B,, | E,2- E,2 C,2 | (3:2:2A,,2 F, (3:2:2B,2 D, (3:2:2E,2 C, | %176
 (3F,,A,,C, (3F,A,C (3E,D,C, | (3F,,B,,D, (3F,B,D (3F,E,D, | (3F,,C,F, (3A,CE (3A,G,F, | %179
 [F,,=E,]2 z4 | [F,,-F,]2 (3F,,A,,C, (3F,G,A, | (3:2:2B,2 A, (3:2:2B,2 =E, (3:2:2F,2 F,, | %182
 (3B,,D,E, (3F,D,C, (3B,,D,G, | G,,2 z4 | (3D,,B,,C, (3D,C,B,, (3F,D,B,, | (3:2:2E,,2 E, F,2 F,,2 | %186
 B,,4- (3:2:2B,,2 z | B,2- (3B, z D (3:2:2B,2 D | G,2- (3G, z E (3:2:2B,2 E | %189
 D,2- (3D, z F (3:2:2D2 F | (3:2:2E2 E, (3:2:2D,2 D (3:2:2C2 C, | %191
 (3B,,D,A,, (3B,,F,,B,, (3D,F,A,, | G,,2- (3:2:2G,,2 D, (3:2:2B,,2 G,, | %193
 (3C,=E,=B,, (3C,G,,C, (3E,G,_B,, | A,,2- (3:2:2A,,2 =E, (3:2:2C,2 A,, | %195
 (3D,F,C, (3D,A,,D, (3F,A,C, | (3:2:2B,,2 A, (3:2:2G,2 B,, (3:2:2A,,2 F, | %197
 (3:2:2G,,2 F, (3:2:2=E,2 G,, (3:2:2F,,2 D, | (3:2:2=E,,2 D, (3:2:2C,2 E,, (3:2:2D,,2 =B,, | %199
 (3C,,=E,,G,, (3C,=E,G, (3B,,A,,G,, | (3C,,F,,A,, (3C,F,A, (3C,B,,A,, | %201
 (3C,,G,,C, (3=E,G,B, (3E,D,C, | [C,,C,]2 z4 | [C,,C,]2 (3z z C, (3:2:2D,2 =E, | %204
 (3F,A,C (3F,A,C (3=E,A,C | (3D,F,A, (3D,F,A, (3C,F,A, | (3B,,D,F, (3B,,D,F, (3A,,D,F, | %207
 (3G,,B,,D, (3G,,B,,D, (3F,,B,,D, | (3=E,,G,,C, (3=E,G,F, (3_E,D,C, | %209
 (3:2:2F,2 D, (3:2:2A,,2 B,, (3:2:2C,2 C,, | (3:2:2F,,2 C, (3:2:2A,,2 C, (3:2:2F,,2 A,, | %211
 (3:2:2D,,2 C, (3:2:2A,,2 C, (3:2:2F,,2 A,, | (3:2:2A,,,2 C, (3:2:2A,,2 C, (3:2:2F,,2 A,, | %213
 (3:2:2B,,,2 B,, C,2 C,,2 | F,,4- (3:2:2F,,2 z | F,2- (3F, z A, (3:2:2C2 E | %216
 E,2- (3E, z ^F, (3:2:2A,2 C | D,2- (3D, z A, (3:2:2D2 ^F | (3:2:2G2 G, (3:2:2F,2 F (3:2:2E2 E, | %219
 (3D,^F,A,[I:staff -1] (3D^FA (3c[I:staff +1] z z | (3G,,B,,D, (3G,B,D (3F z z | %221
 (3C,E,G,[I:staff -1] (3CEG (3B[I:staff +1] z z | (3F,,A,,C, (3F,A,C (3E z z | %223
 (3B,,D,F,[I:staff -1] (3B,DF (3_A[I:staff +1] z z | (3z[I:staff -1] ED (3CEG (3FD[I:staff +1]B,- | %225
 (3B,CB, (3_A,CE (3DB,G,- | (3G,A,G, (3F,A,C (3B,G,E,- | (3E,CA, (3^F,G,A, (3E,D,C, | %228
 (3B,,G,D, (3B,,C,D, (3G,,^F,,=E,, | (3:2:2D,,2 ^A,, (3:2:2D,,2 A,, (3:2:2D,,2 A,, | %230
 D,,2- (3D,, z E, (3:2:2D,2 C, | (3:2:2B,,2 ^F, (3:2:2G,2 C, (3:2:2D,2 D,, | %232
 (3G,,B,,^F,, (3G,,D,,G,, (3B,,D,G,, | D,,2 (3z z B,, (3D,F,B,, | E,2- E,2 C,2 | %235
 (3:2:2A,,2 F, (3:2:2B,2 D, (3:2:2E,2 C, | (3F,,A,,C, (3F,A,C (3E,D,C, | %237
 (3F,,B,,D, (3F,B,D (3F,E,D, | (3F,,C,F, (3A,CE (3A,G,F, | [F,,=E,]2 z4 | %240
 [F,,-F,]2 (3F,,A,,C, (3F,G,A, | (3:2:2B,2 A, (3:2:2B,2 =E, (3:2:2F,2 F,, | %242
 (3B,,D,E, (3F,D,C, (3B,,D,G, | G,,2 z4 | (3D,,B,,C, (3D,C,B,, (3F,D,B,, | (3:2:2E,,2 E, F,2 F,,2 | %246
 B,,4- (3:2:2B,,2 z | z6 |[M:3/4] [B,D]2 [B,,B,]2 z2 | [B,D]2 [B,,B,]2 z2 | B,2 B,2 B,A, | %251
 B,F, B,,2 z2 | [B,C]2 [B,,G,]2 z2 | [A,C]2 [A,,A,]2 z2 | [G,D]2 [G,,G,]2 F,2 | %255
 [=E,C]2 [=E,,E,]2 z2 | F,2 F,,2 =E,2 | D,2 D,,2 C,2 | B,,2 C,2 C,,2 | z z/ A,,/4C,/4 F,4 | %260
 [B,D]2 [B,,B,]2 z2 | [B,D]2 [B,,B,]2 z2 | B,2 B,2 B,A, | B,F, B,,2 z2 | [B,C]2 [B,,G,]2 z2 | %265
 [A,C]2 [A,,A,]2 z2 | [G,D]2 [G,,G,]2 F,2 | [=E,C]2 [=E,,E,]2 z2 | F,2 F,,2 =E,2 | D,2 D,,2 C,2 | %270
 B,,2 C,2 C,,2 | z z/ A,,/4C,/4 F,4 | [F,A,C]2 [F,,F,]2 z2 | [E,A,]2 [E,,E,]2 z2 | D,2 C,2 F,2 | %275
 B,2 [B,,B,]2 z2 | [=B,D]2 [G,D]2 z2 | [C,C]2 [_A,C]2 z2 | [^F,A,]2 G,2 [G,,G,-]2 | %279
 [C,G,]2 [C,,C,]2 z2 | C,/D,/E,/G,/ C/G,/F,/E,/ D,/C,/B,,/G,/ | %281
 A,,/B,,/C,/F,/ A,/C/B,/A,/ G,/F,/F/A,/ | B,>G =E>F G,>E | %283
 F,2- (6:4:4F,3/2G,/F,/E,/ (4:3:4F,/E,/D,/E,/D,/ | D,2 D,,>D, (4:3:4B,,/C,/D,/C,/B,,/ | %285
 E,2 D,/4=E,/4F,/4E,/4F,/4E,/4F,/4E,/4 F,/4E,/4F,/4E,/4F,/4E,/4D,/4E,/4 | F,2 E,2 F,2 | %287
 z z/ D,/4F,/4 B,4 | [F,A,C]2 [F,,F,]2 z2 | [E,A,]2 [E,,E,]2 z2 | D,2 C,2 F,2 | B,2 [B,,B,]2 z2 | %292
 [=B,D]2 [G,D]2 z2 | [C,C]2 [_A,C]2 z2 | [^F,A,]2 G,2 [G,,G,-]2 | [C,G,]2 [C,,C,]2 z2 | %296
 C,/D,/E,/G,/ C/G,/F,/E,/ D,/C,/B,,/G,/ | A,,/B,,/C,/F,/ A,/C/B,/A,/ G,/F,/F/A,/ | B,>G =E>F G,>E | %299
 F,2- (6:4:4F,3/2G,/F,/E,/ (4:3:4F,/E,/D,/E,/D,/ | D,2 D,,>D, (4:3:4B,,/C,/D,/C,/B,,/ | %301
 E,2 D,/4=E,/4F,/4E,/4F,/4E,/4F,/4E,/4 F,/4E,/4F,/4E,/4F,/4E,/4D,/4E,/4 | F,2 E,2 F,2 | %303
 z z/ D,/4F,/4 !fermata!B,4 | z6 |[M:3/4] B,2 F,2 D,2 | B,,2 C,2 D,2 | A,,2 C,2 F,2 | %308
 A,2 B,A, G,F, | B,2 C2 D2 |[I:staff -1] E2 F2 G2 | A2 B2[I:staff +1] B,2 | %312
[I:staff -1] F2[I:staff +1] F,2 A,2 | B,2 F,2 D,2 | B,,2 C,2 D,2 | A,,2 C,2 F,2 | A,2 B,A, G,F, | %317
 B,2 C2 D2 | =E,2 D,2 C,2 | F,2 B,,2 C,2 | F,,A,, C,F, G,A, | B,2 F,2 D,2 | B,,2 C,2 D,2 | %323
 A,,2 C,2 F,2 | A,2 B,A, G,F, | B,2 C2 D2 |[I:staff -1] E2 F2 G2 | A2 B2[I:staff +1] B,2 | %328
[I:staff -1] F2[I:staff +1] F,2 A,2 | B,2 F,2 D,2 | B,,2 C,2 D,2 | A,,2 C,2 F,2 | A,2 B,A, G,F, | %333
 B,2 C2 D2 | =E,2 D,2 C,2 | F,2 B,,2 C,2 | F,2 C,2 A,,2 | F,,2 C,2 F,2 | E,2 D,2 B,,2 | %339
 E,2 G,2 _A,2 | D,2 G,2 G,,2 | C,2 A,2 G,2 | _G,2 D,2 G,2 | G,2 B,,2 D,2 | G,,A,, B,,C, D,E, | %345
 F,2 E,2 D,2 | F,2 E,2 D,2 | G,2 F,2 E,2 | G,2 F,2 E,2 | _A,2 B,2 C2 |[I:staff -1] D2 E2 F2 | %351
 G2 A2 B2 | F2[I:staff +1] F,2 A,2 | D2 D,2 F,2 | G,2 A,2 =B,2 | C2 C,2 E,2 | F,2 G,2 A,2 | %357
 B,2 E,2 F,2 | B,,D, C,B,, A,,G,, | F,,2 C,2 F,2 | E,2 D,2 B,,2 | E,2 G,2 _A,2 | D,2 G,2 G,,2 | %363
 C,2 A,2 G,2 | _G,2 D,2 G,2 | G,2 B,,2 D,2 | G,,A,, B,,C, D,E, | F,2 E,2 D,2 | F,2 E,2 D,2 | %369
 G,2 F,2 E,2 | G,2 F,2 E,2 | _A,2 B,2 C2 |[I:staff -1] D2 E2 F2 | G2 A2 B2 | %374
 F2[I:staff +1] F,2 A,2 | D2 D,2 F,2 | G,2 A,2 =B,2 | C2 C,2 E,2 | F,2 G,2 A,2 | B,2 E,2 F,2 | %380
 B,,6 | z2 C2 D2 | E4 D2- | D2 C2 B,2 | F,4 E2- | E2 C2 D2 | E4 D2- | D2 C2 F2 | F6 | %389
[M:3/4] z2 C2 D2 | E4 D2- | D2 C2 B,2 | F,4 E2- | E2 C2 D2 | E4 D2- | D2 C2 F2 | F6 | C4 F2- | %398
 F2 C4- | C2 B,A, G,^F, | G,6- | G,4 B,2- | B,2 C2 D2- | D2 C2 E2 | D6 | C4 F2- | F2 C4- | %407
 C2 B,A, G,^F, | G,6- | G,4 B,2- | B,2 C2 D2- | D2 C2 E2 | D6 |[M:3/4] B,2 F,2 D,2 | B,,2 C,2 D,2 | %415
 A,,2 C,2 F,2 | A,2 B,A, G,F, | B,2 C2 D2 |[I:staff -1] E2 F2 G2 | A2 B2[I:staff +1] B,2 | %420
[I:staff -1] F2[I:staff +1] F,2 A,2 | B,2 F,2 D,2 | B,,2 C,2 D,2 | A,,2 C,2 F,2 | A,2 B,A, G,F, | %425
 B,2 C2 D2 | =E,2 D,2 C,2 | F,2 B,,2 C,2 | F,2 C,2 A,,2 | F,,2 C,2 F,2 | E,2 D,2 B,,2 | %431
 E,2 G,2 _A,2 | D,2 G,2 G,,2 | C,2 A,2 G,2 | _G,2 D,2 G,2 | G,2 B,,2 D,2 | G,,A,, B,,C, D,E, | %437
 F,2 E,2 D,2 | F,2 E,2 D,2 | G,2 F,2 E,2 | G,2 F,2 E,2 | _A,2 B,2 C2 | D2 E2 F2 | G2 A2 B2 | %444
 F2 F,2 A,2 | D2 D,2 F,2 | G,2 A,2 =B,2 | C2 C,2 E,2 | F,2 G,2 A,2 | B,2 E,2 F,2 | !fermata!B,,6 | %451
 z6 | %452
[M:4/4] (3z[I:staff -1] DB[I:staff +1] (3z[I:staff -1] DB[I:staff +1] (3z[I:staff -1] DB[I:staff +1] (3z[I:staff -1] DB | %453
[I:staff +1] (3z[I:staff -1] EB[I:staff +1] (3z[I:staff -1] EB[I:staff +1] (3z[I:staff -1] EB[I:staff +1] (3z[I:staff -1] EB | %454
[I:staff +1] (3z[I:staff -1] EA[I:staff +1] (3z[I:staff -1] EA[I:staff +1] (3z[I:staff -1] EA[I:staff +1] (3z[I:staff -1] EA | %455
[I:staff +1] (3z[I:staff -1] FB[I:staff +1] (3z[I:staff -1] FB[I:staff +1] (3z[I:staff -1] FB[I:staff +1] (3z[I:staff -1] FB | %456
[I:staff +1] (3z[I:staff -1] Bd[I:staff +1] (3z[I:staff -1] Bd[I:staff +1] (3z[I:staff -1] Bd[I:staff +1] (3z[I:staff -1] Bd | %457
[I:staff +1] (3z[I:staff -1] Bc[I:staff +1] (3z[I:staff -1] Bc[I:staff +1] (3z[I:staff -1] Bc[I:staff +1] (3z[I:staff -1] Ac | %458
[I:staff +1] (3z[I:staff -1] Ac[I:staff +1] (3z[I:staff -1] Ac[I:staff +1] (3z[I:staff -1] Ac[I:staff +1] (3z[I:staff -1] Ac | %459
[I:staff +1] (3z[I:staff -1] AB[I:staff +1] (3z[I:staff -1] AB[I:staff +1] (3z[I:staff -1] AB[I:staff +1] (3z[I:staff -1] AB | %460
[I:staff +1] (3z[I:staff -1] GB[I:staff +1] (3z[I:staff -1] GB[I:staff +1] (3z[I:staff -1] GB[I:staff +1] (3z[I:staff -1] GB | %461
[I:staff +1] (3z[I:staff -1] F_A[I:staff +1] (3z[I:staff -1] FA[I:staff +1] (3z[I:staff -1] FA[I:staff +1] (3z[I:staff -1] FA | %462
[I:staff +1] (3z[I:staff -1] =EG[I:staff +1] (3z[I:staff -1] EG[I:staff +1] (3z[I:staff -1] EG[I:staff +1] (3z[I:staff -1] EG | %463
[I:staff +1] (3z[I:staff -1] =EF[I:staff +1] (3z[I:staff -1] EF[I:staff +1] (3z[I:staff -1] EF[I:staff +1] (3z[I:staff -1] EF | %464
[I:staff +1] (3z[I:staff -1] DF[I:staff +1] (3z[I:staff -1] DF[I:staff +1] (3z[I:staff -1] DF[I:staff +1] (3z[I:staff -1] DF | %465
[I:staff +1] (3z[I:staff -1] =EG[I:staff +1] (3z[I:staff -1] EG[I:staff +1] (3z[I:staff -1] EG[I:staff +1] (3z[I:staff -1] EG | %466
[I:staff +1] (3z[I:staff -1] =EF[I:staff +1] (3z[I:staff -1] EF[I:staff +1] (3z[I:staff -1] EF[I:staff +1] (3z[I:staff -1] EF | %467
[I:staff +1] (3z A,C (3z[I:staff -1] Ac[I:staff +1] z4 | %468
 (3z[I:staff -1] DB[I:staff +1] (3z[I:staff -1] DB[I:staff +1] (3z[I:staff -1] DB[I:staff +1] (3z[I:staff -1] DB | %469
[I:staff +1] (3z[I:staff -1] EB[I:staff +1] (3z[I:staff -1] EB[I:staff +1] (3z[I:staff -1] EB[I:staff +1] (3z[I:staff -1] EB | %470
[I:staff +1] (3z[I:staff -1] EA[I:staff +1] (3z[I:staff -1] EA[I:staff +1] (3z[I:staff -1] EA[I:staff +1] (3z[I:staff -1] EA | %471
[I:staff +1] (3z[I:staff -1] FB[I:staff +1] (3z[I:staff -1] FB[I:staff +1] (3z[I:staff -1] FB[I:staff +1] (3z[I:staff -1] FB | %472
[I:staff +1] (3z[I:staff -1] Bd[I:staff +1] (3z[I:staff -1] Bd[I:staff +1] (3z[I:staff -1] Gd[I:staff +1] (3z[I:staff -1] Gd | %473
[I:staff +1] (3z[I:staff -1] Bc[I:staff +1] (3z[I:staff -1] Bc[I:staff +1] (3z[I:staff -1] Bc[I:staff +1] (3z[I:staff -1] Ac | %474
[I:staff +1] (3z[I:staff -1] Ac[I:staff +1] (3z[I:staff -1] Ac[I:staff +1] (3z[I:staff -1] Ac[I:staff +1] (3z[I:staff -1] Ac | %475
[I:staff +1] (3z[I:staff -1] AB[I:staff +1] (3z[I:staff -1] AB[I:staff +1] (3z[I:staff -1] AB[I:staff +1] (3z[I:staff -1] AB | %476
[I:staff +1] (3z[I:staff -1] GB[I:staff +1] (3z[I:staff -1] GB[I:staff +1] (3z[I:staff -1] GB[I:staff +1] (3z[I:staff -1] GB | %477
[I:staff +1] (3z[I:staff -1] F_A[I:staff +1] (3z[I:staff -1] FA[I:staff +1] (3z[I:staff -1] FA[I:staff +1] (3z[I:staff -1] FA | %478
[I:staff +1] (3z[I:staff -1] =EG[I:staff +1] (3z[I:staff -1] EG[I:staff +1] (3z[I:staff -1] EG[I:staff +1] (3z[I:staff -1] EG | %479
[I:staff +1] (3z[I:staff -1] =EF[I:staff +1] (3z[I:staff -1] EF[I:staff +1] (3z[I:staff -1] EF[I:staff +1] (3z[I:staff -1] EF | %480
[I:staff +1] (3z[I:staff -1] DF[I:staff +1] (3z[I:staff -1] DF[I:staff +1] (3z[I:staff -1] DF[I:staff +1] (3z[I:staff -1] DF | %481
[I:staff +1] (3z[I:staff -1] =EG[I:staff +1] (3z[I:staff -1] EG[I:staff +1] (3z[I:staff -1] EG[I:staff +1] (3z[I:staff -1] EG | %482
[I:staff +1] (3z[I:staff -1] =EF[I:staff +1] (3z[I:staff -1] EF[I:staff +1] (3z[I:staff -1] EF[I:staff +1] (3z[I:staff -1] EF | %483
[I:staff +1] (3z A,C (3z[I:staff -1] Ac[I:staff +1] z4 | %484
 (3z[I:staff -1] Fc[I:staff +1] (3z[I:staff -1] Fc[I:staff +1] (3z[I:staff -1] Fc[I:staff +1] (3z[I:staff -1] Fc | %485
[I:staff +1] (3z[I:staff -1] Fd[I:staff +1] (3z[I:staff -1] Fd[I:staff +1] (3z[I:staff -1] Fd[I:staff +1] (3z[I:staff -1] Fd | %486
[I:staff +1] (3z[I:staff -1] Ed[I:staff +1] (3z[I:staff -1] Ed[I:staff +1] (3z[I:staff -1] Ec[I:staff +1] (3z[I:staff -1] Ec | %487
[I:staff +1] (3z[I:staff -1] Dc[I:staff +1] (3z[I:staff -1] =Ec[I:staff +1] (3z[I:staff -1] ^Fc[I:staff +1] (3z[I:staff -1] Ac | %488
[I:staff +1] (3z[I:staff -1] GB[I:staff +1] (3z[I:staff -1] GB[I:staff +1] (3z[I:staff -1] GB[I:staff +1] (3z[I:staff -1] GB | %489
[I:staff +1] (3z[I:staff -1] ^FA[I:staff +1] (3z[I:staff -1] FA[I:staff +1] (3z[I:staff -1] FA[I:staff +1] (3z[I:staff -1] FA | %490
[I:staff +1] (3z[I:staff -1] ^FG[I:staff +1] (3z[I:staff -1] FG[I:staff +1] (3z[I:staff -1] FG[I:staff +1] (3z[I:staff -1] FG | %491
[I:staff +1] (3z[I:staff -1] ^FA[I:staff +1] (3z[I:staff -1] FA[I:staff +1] (3z[I:staff -1] FA[I:staff +1] (3z[I:staff -1] FA | %492
[I:staff +1] (3z[I:staff -1] GB[I:staff +1] (3z[I:staff -1] Ac[I:staff +1] (3z[I:staff -1] Bd[I:staff +1] (3z[I:staff -1] G=e | %493
[I:staff +1] (3z[I:staff -1] A^f[I:staff +1] (3z[I:staff -1] Bg[I:staff +1] (3z[I:staff -1] ca[I:staff +1] (3z[I:staff -1] cf | %494
[I:staff +1] (3z[I:staff -1] =Bg[I:staff +1] (3z[I:staff -1] _B=e[I:staff +1] (3z[I:staff -1] A^f[I:staff +1] (3z[I:staff -1] cf | %495
[I:staff +1] (3z[I:staff -1] Bg[I:staff +1] (3z[I:staff -1] Bg[I:staff +1] (3z[I:staff -1] Bg[I:staff +1] (3z[I:staff -1] Bg | %496
[I:staff +1] (3z[I:staff -1] _Af[I:staff +1] (3z[I:staff -1] Af[I:staff +1] (3z[I:staff -1] Af[I:staff +1] (3z[I:staff -1] Af | %497
[I:staff +1] (3z[I:staff -1] Ge[I:staff +1] (3z[I:staff -1] Ge[I:staff +1] (3z[I:staff -1] Ge[I:staff +1] (3z[I:staff -1] Ge | %498
[I:staff +1] (3z[I:staff -1] Ae[I:staff +1] (3z[I:staff -1] Ae[I:staff +1] (3z[I:staff -1] Bd[I:staff +1] (3z[I:staff -1] B_d | %499
[I:staff +1] (3z[I:staff -1] Ac[I:staff +1] (3z[I:staff -1] Ac[I:staff +1] (3z[I:staff -1] Ac[I:staff +1] (3z[I:staff -1] Ac | %500
[I:staff +1] (3z[I:staff -1] Ac[I:staff +1] (3z[I:staff -1] Ac[I:staff +1] (3z[I:staff -1] Ac[I:staff +1] (3z[I:staff -1] Ac | %501
[I:staff +1] (3z[I:staff -1] _A=B[I:staff +1] (3z[I:staff -1] AB[I:staff +1] (3z[I:staff -1] AB[I:staff +1] (3z[I:staff -1] AB | %502
[I:staff +1] (3z[I:staff -1] GB[I:staff +1] (3z[I:staff -1] GB[I:staff +1] (3z[I:staff -1] GB[I:staff +1] (3z[I:staff -1] GB | %503
[I:staff +1] (3z[I:staff -1] _GA[I:staff +1] (3z[I:staff -1] GA[I:staff +1] (3z[I:staff -1] GA[I:staff +1] (3z[I:staff -1] GA | %504
[I:staff +1] (3z[I:staff -1] F_A[I:staff +1] (3z[I:staff -1] FA[I:staff +1] (3z[I:staff -1] FA[I:staff +1] (3z[I:staff -1] FA | %505
[I:staff +1] (3z[I:staff -1] =EG[I:staff +1] (3z[I:staff -1] EG[I:staff +1] (3z[I:staff -1] EG[I:staff +1] (3z[I:staff -1] EG | %506
[I:staff +1] (3z[I:staff -1] E_G[I:staff +1] (3z[I:staff -1] EG[I:staff +1] (3z[I:staff -1] EG[I:staff +1] (3z[I:staff -1] EG | %507
[I:staff +1] (3z[I:staff -1] _D=E[I:staff +1] (3z[I:staff -1] DE[I:staff +1] (3z[I:staff -1] DE[I:staff +1] (3z[I:staff -1] DE | %508
[I:staff +1] (3z[I:staff -1] CE[I:staff +1] (3z[I:staff -1] CE[I:staff +1] (3z[I:staff -1] CE[I:staff +1] (3z[I:staff -1] CE | %509
[I:staff +1] (3z B,_D (3z B,D (3z B,D (3z B,D | (3z A,C (3z A,C (3z A,C (3z A,C | %511
 (3z A,B, (3z A,B, (3z A,B, (3z A,B, | (3z G,B, (3z G,B, (3z G,B, (3z G,B, | %513
 (3z A,C (3z A,C (3z A,C (3z A,C | (3z A,B, (3z A,B, (3z A,B, (3z A,B, | %515
 (3z[I:staff -1] DF[I:staff +1] (3z[I:staff -1] df[I:staff +1] z4 | %516
 (3z[I:staff -1] Fc[I:staff +1] (3z[I:staff -1] Fc[I:staff +1] (3z[I:staff -1] Fc[I:staff +1] (3z[I:staff -1] Fc | %517
[I:staff +1] (3z[I:staff -1] Fd[I:staff +1] (3z[I:staff -1] Fd[I:staff +1] (3z[I:staff -1] Fd[I:staff +1] (3z[I:staff -1] Fd | %518
[I:staff +1] (3z[I:staff -1] Ed[I:staff +1] (3z[I:staff -1] Ed[I:staff +1] (3z[I:staff -1] Ec[I:staff +1] (3z[I:staff -1] Ec | %519
[I:staff +1] (3z[I:staff -1] Dc[I:staff +1] (3z[I:staff -1] =Ec[I:staff +1] (3z[I:staff -1] ^Fc[I:staff +1] (3z[I:staff -1] Ac | %520
[I:staff +1] (3z[I:staff -1] GB[I:staff +1] (3z[I:staff -1] GB[I:staff +1] (3z[I:staff -1] GB[I:staff +1] (3z[I:staff -1] GB | %521
[I:staff +1] (3z[I:staff -1] ^FA[I:staff +1] (3z[I:staff -1] FA[I:staff +1] (3z[I:staff -1] FA[I:staff +1] (3z[I:staff -1] FA | %522
[I:staff +1] (3z[I:staff -1] ^FG[I:staff +1] (3z[I:staff -1] FG[I:staff +1] (3z[I:staff -1] FG[I:staff +1] (3z[I:staff -1] FG | %523
[I:staff +1] (3z[I:staff -1] ^FA[I:staff +1] (3z[I:staff -1] FA[I:staff +1] (3z[I:staff -1] FA[I:staff +1] (3z[I:staff -1] FA | %524
[I:staff +1] (3z[I:staff -1] GB[I:staff +1] (3z[I:staff -1] Ac[I:staff +1] (3z[I:staff -1] Bd[I:staff +1] (3z[I:staff -1] G=e | %525
[I:staff +1] (3z[I:staff -1] A^f[I:staff +1] (3z[I:staff -1] Bg[I:staff +1] (3z[I:staff -1] ca[I:staff +1] (3z[I:staff -1] cf | %526
[I:staff +1] (3z[I:staff -1] =Bg[I:staff +1] (3z[I:staff -1] _B=e[I:staff +1] (3z[I:staff -1] A^f[I:staff +1] (3z[I:staff -1] cf | %527
[I:staff +1] (3z[I:staff -1] Bg[I:staff +1] (3z[I:staff -1] Bg[I:staff +1] (3z[I:staff -1] Bg[I:staff +1] (3z[I:staff -1] Bg | %528
[I:staff +1] (3z[I:staff -1] _Af[I:staff +1] (3z[I:staff -1] Af[I:staff +1] (3z[I:staff -1] Af[I:staff +1] (3z[I:staff -1] Af | %529
[I:staff +1] (3z[I:staff -1] Ge[I:staff +1] (3z[I:staff -1] Ge[I:staff +1] (3z[I:staff -1] Ge[I:staff +1] (3z[I:staff -1] Ge | %530
[I:staff +1] (3z[I:staff -1] Ae[I:staff +1] (3z[I:staff -1] Ae[I:staff +1] (3z[I:staff -1] Bd[I:staff +1] (3z[I:staff -1] B_d | %531
[I:staff +1] (3z[I:staff -1] Ac[I:staff +1] (3z[I:staff -1] Ac[I:staff +1] (3z[I:staff -1] Ac[I:staff +1] (3z[I:staff -1] Ac | %532
[I:staff +1] (3z[I:staff -1] Ac[I:staff +1] (3z[I:staff -1] Ac[I:staff +1] (3z[I:staff -1] Ac[I:staff +1] (3z[I:staff -1] Ac | %533
[I:staff +1] (3z[I:staff -1] _A=B[I:staff +1] (3z[I:staff -1] AB[I:staff +1] (3z[I:staff -1] AB[I:staff +1] (3z[I:staff -1] AB | %534
[I:staff +1] (3z[I:staff -1] GB[I:staff +1] (3z[I:staff -1] GB[I:staff +1] (3z[I:staff -1] GB[I:staff +1] (3z[I:staff -1] GB | %535
[I:staff +1] (3z[I:staff -1] _GA[I:staff +1] (3z[I:staff -1] GA[I:staff +1] (3z[I:staff -1] GA[I:staff +1] (3z[I:staff -1] GA | %536
[I:staff +1] (3z[I:staff -1] F_A[I:staff +1] (3z[I:staff -1] FA[I:staff +1] (3z[I:staff -1] FA[I:staff +1] (3z[I:staff -1] FA | %537
[I:staff +1] (3z[I:staff -1] =EG[I:staff +1] (3z[I:staff -1] EG[I:staff +1] (3z[I:staff -1] EG[I:staff +1] (3z[I:staff -1] EG | %538
[I:staff +1] (3z[I:staff -1] E_G[I:staff +1] (3z[I:staff -1] EG[I:staff +1] (3z[I:staff -1] EG[I:staff +1] (3z[I:staff -1] EG | %539
[I:staff +1] (3z[I:staff -1] _D=E[I:staff +1] (3z[I:staff -1] DE[I:staff +1] (3z[I:staff -1] DE[I:staff +1] (3z[I:staff -1] DE | %540
[I:staff +1] (3z[I:staff -1] CE[I:staff +1] (3z[I:staff -1] CE[I:staff +1] (3z[I:staff -1] CE[I:staff +1] (3z[I:staff -1] CE | %541
[I:staff +1] (3z B,_D (3z B,D (3z B,D (3z B,D | (3z A,C (3z A,C (3z A,C (3z A,C | %543
 (3z A,B, (3z A,B, (3z A,B, (3z A,B, | (3z G,B, (3z G,B, (3z G,B, (3z G,B, | %545
 (3z A,C (3z A,C (3z A,C (3z A,C | (3z A,B, (3z A,B, (3z A,B, (3z A,B, | %547
 (3z[I:staff -1] DF[I:staff +1] (3z[I:staff -1] df[I:staff +1] z4 |] %548
V:4
 x8 | x8 | x8 | x8 | x8 | x8 | x8 | x8 | x8 | x8 | x8 | x8 | x8 | x8 | x8 | x8 | x8 | x8 | %18
 B,, z z2 B,, z z2 | B,, z z2 z D,,E,,F,, | x8 |[M:4/4] x8 | x8 | x8 | x8 | x8 | x8 | x8 | x8 | %29
 x8 | x8 | x8 | x8 | x8 | x8 | x8 | x8 | x8 | F,>A, B,>A, G,>F, =E,>E, | F,>D, C,C,, F,,3 z | x8 | %41
 x8 | x8 | x8 | x8 | x8 | x8 | x8 | x8 | x8 | x8 | x8 | x8 | x8 | x8 | x8 | %56
 F,>A, B,>A, G,>F, =E,>E, | F,>D, C,C,, F,,3 z | x8 | x8 | x8 | x8 | x8 | x8 | x8 | x8 | %66
 G,,2 z2 z4 | x8 | x8 | x8 | x8 | x8 | x8 | x8 | x8 | x8 | x8 | x8 | x8 | x8 | x8 | x8 | x8 | x8 | %84
 x8 | x8 | G,,2 z2 z4 | x8 | x8 | x8 | x8 | x8 | x8 | x8 | x8 | x8 | x8 | x8 |[M:3/4] x6 | x6 | %100
 x6 | x6 | x6 | x6 | x6 | x6 | x6 | x6 | x6 | x6 | x6 | x6 | x6 | x6 | x6 | x6 | x6 | x6 | x6 | %119
 x6 | x6 | x6 | x6 | x6 | x6 | x6 | x6 | x6 | x6 | x6 | x6 | x6 | x6 | x6 | x6 | x6 | x6 | x6 | %138
 x6 | x6 | x6 | x6 | x6 | x6 | x6 | x6 | x6 | x6 | x6 | x6 | x6 | x6 | x6 | x6 | x6 | x6 | x6 | %157
 x6 | x6 | x6 | x6 | x6 | x6 | x6 | x6 | x6 | x6 | x6 | x6 | x6 | x6 | x6 | x6 | x6 | x6 | x6 | %176
 x6 | x6 | x6 | x6 | x6 | x6 | x6 | x6 | x6 | x6 | x6 | x6 | x6 | x6 | x6 | x6 | x6 | x6 | x6 | %195
 x6 | x6 | x6 | x6 | x6 | x6 | x6 | x6 | x6 | x6 | x6 | x6 | x6 | x6 | x6 | x6 | x6 | x6 | x6 | %214
 x6 | x6 | x6 | x6 | x6 | x6 | x6 | x6 | x6 | x6 | x6 | x6 | x6 | x6 | x6 | x6 | x6 | x6 | x6 | %233
 x6 | x6 | x6 | x6 | x6 | x6 | x6 | x6 | x6 | x6 | x6 | x6 | x6 | x6 | x6 |[M:3/4] x6 | x6 | x6 | %251
 x6 | x6 | x6 | x6 | x6 | x6 | x6 | x6 | F,,6 | x6 | x6 | x6 | x6 | x6 | x6 | x6 | x6 | x6 | x6 | %270
 x6 | F,,6 | x6 | x6 | x6 | x6 | x6 | x6 | x6 | x6 | x6 | x6 | x6 | x6 | x6 | x6 | x6 | B,,6 | x6 | %289
 x6 | x6 | x6 | x6 | x6 | x6 | x6 | x6 | x6 | x6 | x6 | x6 | x6 | x6 | !fermata!B,,6 | x6 | %305
[M:3/4] x6 | x6 | x6 | x6 | x6 | x6 | x6 | x6 | x6 | x6 | x6 | x6 | x6 | x6 | x6 | x6 | x6 | x6 | %323
 x6 | x6 | x6 | x6 | x6 | x6 | x6 | x6 | x6 | x6 | x6 | x6 | x6 | x6 | x6 | x6 | x6 | x6 | x6 | %342
 x6 | x6 | x6 | x6 | x6 | x6 | x6 | x6 | x6 | x6 | x6 | x6 | x6 | x6 | x6 | x6 | x6 | x6 | x6 | %361
 x6 | x6 | x6 | x6 | x6 | x6 | x6 | x6 | x6 | x6 | x6 | x6 | x6 | x6 | x6 | x6 | x6 | x6 | x6 | %380
 x6 | B,6- | B,6 | E4 F2- | F2 C2 z2 | B,6- | B,6 | E4 B,2 | F,6 |[M:3/4] B,6- | B,6 | E4 F2- | %392
 F2 C2 z2 | B,6- | B,6 | E4 B,2 | F,6 | F,2 G,2 A,2 | B,4 B,2 | A,2 ^F,2 D,2 | G,2 D,2 G,,2 | %401
 z2 A,2 F,2 | E,4 D,2 | F,6 | [B,,B,]6 | F,2 G,2 A,2 | B,4 B,2 | A,2 ^F,2 D,2 | G,2 D,2 G,,2 | %409
 z2 A,2 F,2 | E,4 D,2 | F,6 | [B,,B,]6 |[M:3/4] x6 | x6 | x6 | x6 | x6 | x6 | x6 | x6 | x6 | x6 | %423
 x6 | x6 | x6 | x6 | x6 | x6 | x6 | x6 | x6 | x6 | x6 | x6 | x6 | x6 | x6 | x6 | x6 | x6 | x6 | %442
 x6 | x6 | x6 | x6 | x6 | x6 | x6 | x6 | x6 | x6 |[M:4/4] x8 | x8 | x8 | x8 | x8 | x8 | x8 | x8 | %460
 x8 | x8 | x8 | x8 | x8 | x8 | x8 | x8 | x8 | x8 | x8 | x8 | x8 | x8 | x8 | x8 | x8 | x8 | x8 | %479
 x8 | x8 | x8 | x8 | x8 | x8 | x8 | x8 | x8 | x8 | x8 | x8 | x8 | x8 | x8 | x8 | x8 | x8 | x8 | %498
 x8 | x8 | x8 | x8 | x8 | x8 | x8 | x8 | x8 | x8 | x8 | x8 | x8 | x8 | x8 | x8 | x8 | x8 | x8 | %517
 x8 | x8 | x8 | x8 | x8 | x8 | x8 | x8 | x8 | x8 | x8 | x8 | x8 | x8 | x8 | x8 | x8 | x8 | x8 | %536
 x8 | x8 | x8 | x8 | x8 | x8 | x8 | x8 | x8 | x8 | x8 | x8 |] %548
V:5
 x8 | x8 | x8 | x8 | x8 | x8 | x8 | x8 | x8 | x8 | x8 | x8 | x8 | x8 | x8 | x8 | x8 | x8 | x8 | %19
 x8 | x8 |[M:4/4] x8 | x8 | x8 | x8 | x8 | x8 | x8 | x8 | x8 | x8 | x8 | x8 | x8 | x8 | x8 | x8 | %37
 x8 | x8 | x8 | x8 | x8 | x8 | x8 | x8 | x8 | x8 | x8 | x8 | x8 | x8 | x8 | x8 | x8 | x8 | x8 | %56
 x8 | x8 | x8 | x8 | x8 | x8 | x8 | x8 | x8 | x8 | x8 | x8 | x8 | x8 | x8 | x8 | x8 | x8 | x8 | %75
 x8 | x8 | x8 | x8 | x8 | x8 | x8 | x8 | x8 | x8 | x8 | x8 | x8 | x8 | x8 | x8 | x8 | x8 | x8 | %94
 x8 | x8 | x8 | x8 |[M:3/4] x6 | x6 | x6 | x6 | x6 | x6 | x6 | x6 | x6 | x6 | x6 | x6 | x6 | x6 | %112
 x6 | x6 | x6 | x6 | x6 | x6 | x6 | x6 | x6 | x6 | x6 | x6 | x6 | x6 | x6 | x6 | x6 | x6 | x6 | %131
 x6 | x6 | x6 | x6 | x6 | x6 | x6 | x6 | x6 | x6 | x6 | x6 | x6 | x6 | x6 | x6 | x6 | x6 | x6 | %150
 x6 | x6 | x6 | x6 | x6 | x6 | x6 | x6 | x6 | x6 | x6 | x6 | x6 | x6 | x6 | x6 | x6 | x6 | x6 | %169
 x6 | x6 | x6 | x6 | x6 | x6 | x6 | x6 | x6 | x6 | x6 | x6 | x6 | x6 | x6 | x6 | x6 | x6 | x6 | %188
 x6 | x6 | x6 | x6 | x6 | x6 | x6 | x6 | x6 | x6 | x6 | x6 | x6 | x6 | x6 | x6 | x6 | x6 | x6 | %207
 x6 | x6 | x6 | x6 | x6 | x6 | x6 | x6 | x6 | x6 | x6 | x6 | x6 | x6 | x6 | x6 | x6 | x6 | x6 | %226
 x6 | x6 | x6 | x6 | x6 | x6 | x6 | x6 | x6 | x6 | x6 | x6 | x6 | x6 | x6 | x6 | x6 | x6 | x6 | %245
 x6 | x6 | x6 |[M:3/4] x6 | x6 | x6 | x6 | z G G z z2 | z A z4 | x6 | x6 | x6 | x6 | x6 | x6 | x6 | %261
 x6 | x6 | x6 | z G G z z2 | z A z4 | x6 | x6 | x6 | x6 | x6 | x6 | x6 | x6 | z B z4 | x6 | x6 | %277
 x6 | x6 | x6 | x6 | x6 | x6 | x6 | x6 | x6 | x6 | x6 | x6 | x6 | z B z4 | x6 | x6 | x6 | x6 | x6 | %296
 x6 | x6 | x6 | x6 | x6 | x6 | x6 | x6 | x6 |[M:3/4] x6 | x6 | x6 | x6 | x6 | x6 | x6 | x6 | x6 | %314
 x6 | x6 | x6 | x6 | x6 | x6 | x6 | x6 | x6 | x6 | x6 | x6 | x6 | x6 | x6 | x6 | x6 | x6 | x6 | %333
 x6 | x6 | x6 | x6 | x6 | x6 | x6 | x6 | x6 | x6 | x6 | x6 | x6 | x6 | x6 | x6 | x6 | x6 | x6 | %352
 x6 | x6 | x6 | x6 | x6 | x6 | x6 | x6 | x6 | x6 | x6 | x6 | x6 | x6 | x6 | x6 | x6 | x6 | x6 | %371
 x6 | x6 | x6 | x6 | x6 | x6 | x6 | x6 | x6 | x6 | x6 | x6 | x6 | x6 | x6 | x6 | x6 | x6 | %389
[M:3/4] x6 | x6 | x6 | x6 | x6 | x6 | x6 | x6 | x6 | x6 | x6 | x6 | x6 | x6 | x6 | x6 | x6 | x6 | %407
 x6 | x6 | x6 | x6 | x6 | x6 |[M:3/4] x6 | x6 | x6 | x6 | x6 | x6 | x6 | x6 | x6 | x6 | x6 | x6 | %425
 x6 | x6 | x6 | x6 | x6 | x6 | x6 | x6 | x6 | x6 | x6 | x6 | x6 | x6 | x6 | x6 | x6 | x6 | x6 | %444
 x6 | x6 | x6 | x6 | x6 | x6 | x6 | x6 |[M:4/4] x8 | x8 | x8 | x8 | x8 | x8 | x8 | x8 | x8 | x8 | %462
 x8 | x8 | x8 | x8 | x8 | x8 | x8 | x8 | x8 | x8 | x8 | x8 | x8 | x8 | x8 | x8 | x8 | x8 | x8 | %481
 x8 | x8 | x8 | x8 | x8 | x8 | x8 | x8 | x8 | x8 | x8 | x8 | x8 | x8 | x8 | x8 | x8 | x8 | x8 | %500
 x8 | x8 | x8 | x8 | x8 | x8 | x8 | x8 | x8 | x8 | x8 | x8 | x8 | x8 | x8 | x8 | x8 | x8 | x8 | %519
 x8 | x8 | x8 | x8 | x8 | x8 | x8 | x8 | x8 | x8 | x8 | x8 | x8 | x8 | x8 | x8 | x8 | x8 | x8 | %538
 x8 | x8 | x8 | x8 | x8 | x8 | x8 | x8 | x8 | x8 |] %548
V:6
 x8 | x8 | x8 | x8 | x8 | x8 | x8 | x8 | x8 | x8 | x8 | x8 | x8 | x8 | x8 | x8 | x8 | x8 | x8 | %19
 x8 | x8 |[M:4/4] x8 | x8 | x8 | x8 | x8 | x8 | x8 | x8 | x8 | x8 | x8 | x8 | x8 | x8 | x8 | x8 | %37
 x8 | x8 | x8 | x8 | x8 | x8 | x8 | x8 | x8 | x8 | x8 | x8 | x8 | x8 | x8 | x8 | x8 | x8 | x8 | %56
 x8 | x8 | x8 | x8 | x8 | x8 | x8 | x8 | x8 | x8 | x8 | x8 | x8 | x8 | x8 | x8 | x8 | x8 | x8 | %75
 x8 | x8 | x8 | x8 | x8 | x8 | x8 | x8 | x8 | x8 | x8 | x8 | x8 | x8 | x8 | x8 | x8 | x8 | x8 | %94
 x8 | x8 | x8 | x8 |[M:3/4] x6 | x6 | x6 | x6 | x6 | x6 | x6 | x6 | x6 | x6 | x6 | x6 | x6 | x6 | %112
 x6 | x6 | x6 | x6 | x6 | x6 | x6 | x6 | x6 | x6 | x6 | x6 | x6 | x6 | x6 | x6 | x6 | x6 | x6 | %131
 x6 | x6 | x6 | x6 | x6 | x6 | x6 | x6 | x6 | x6 | x6 | x6 | x6 | x6 | x6 | x6 | x6 | x6 | x6 | %150
 x6 | x6 | x6 | x6 | x6 | x6 | x6 | x6 | x6 | x6 | x6 | x6 | x6 | x6 | x6 | x6 | x6 | x6 | x6 | %169
 x6 | x6 | x6 | x6 | x6 | x6 | x6 | x6 | x6 | x6 | x6 | x6 | x6 | x6 | x6 | x6 | x6 | x6 | x6 | %188
 x6 | x6 | x6 | x6 | x6 | x6 | x6 | x6 | x6 | x6 | x6 | x6 | x6 | x6 | x6 | x6 | x6 | x6 | x6 | %207
 x6 | x6 | x6 | x6 | x6 | x6 | x6 | x6 | x6 | x6 | x6 | x6 | x6 | x6 | x6 | x6 | x6 | x6 | x6 | %226
 x6 | x6 | x6 | x6 | x6 | x6 | x6 | x6 | x6 | x6 | x6 | x6 | x6 | x6 | x6 | x6 | x6 | x6 | x6 | %245
 x6 | x6 | x6 |[M:3/4] x6 | x6 | x6 | x6 | x6 | z3/2 c/ c z z2 | x6 | x6 | x6 | x6 | x6 | x6 | x6 | %261
 x6 | x6 | x6 | x6 | z3/2 c/ c z z2 | x6 | x6 | x6 | x6 | x6 | x6 | x6 | x6 | x6 | x6 | x6 | x6 | %278
 x6 | x6 | x6 | x6 | x6 | x6 | x6 | x6 | x6 | x6 | x6 | x6 | x6 | x6 | x6 | x6 | x6 | x6 | x6 | %297
 x6 | x6 | x6 | x6 | x6 | x6 | x6 | x6 |[M:3/4] x6 | x6 | x6 | x6 | x6 | x6 | x6 | x6 | x6 | x6 | %315
 x6 | x6 | x6 | x6 | x6 | x6 | x6 | x6 | x6 | x6 | x6 | x6 | x6 | x6 | x6 | x6 | x6 | x6 | x6 | %334
 x6 | x6 | x6 | x6 | x6 | x6 | x6 | x6 | x6 | x6 | x6 | x6 | x6 | x6 | x6 | x6 | x6 | x6 | x6 | %353
 x6 | x6 | x6 | x6 | x6 | x6 | x6 | x6 | x6 | x6 | x6 | x6 | x6 | x6 | x6 | x6 | x6 | x6 | x6 | %372
 x6 | x6 | x6 | x6 | x6 | x6 | x6 | x6 | x6 | x6 | x6 | x6 | x6 | x6 | x6 | x6 | x6 |[M:3/4] x6 | %390
 x6 | x6 | x6 | x6 | x6 | x6 | x6 | x6 | x6 | x6 | x6 | x6 | x6 | x6 | x6 | x6 | x6 | x6 | x6 | %409
 x6 | x6 | x6 | x6 |[M:3/4] x6 | x6 | x6 | x6 | x6 | x6 | x6 | x6 | x6 | x6 | x6 | x6 | x6 | x6 | %427
 x6 | x6 | x6 | x6 | x6 | x6 | x6 | x6 | x6 | x6 | x6 | x6 | x6 | x6 | x6 | x6 | x6 | x6 | x6 | %446
 x6 | x6 | x6 | x6 | x6 | x6 |[M:4/4] x8 | x8 | x8 | x8 | x8 | x8 | x8 | x8 | x8 | x8 | x8 | x8 | %464
 x8 | x8 | x8 | x8 | x8 | x8 | x8 | x8 | x8 | x8 | x8 | x8 | x8 | x8 | x8 | x8 | x8 | x8 | x8 | %483
 x8 | x8 | x8 | x8 | x8 | x8 | x8 | x8 | x8 | x8 | x8 | x8 | x8 | x8 | x8 | x8 | x8 | x8 | x8 | %502
 x8 | x8 | x8 | x8 | x8 | x8 | x8 | x8 | x8 | x8 | x8 | x8 | x8 | x8 | x8 | x8 | x8 | x8 | x8 | %521
 x8 | x8 | x8 | x8 | x8 | x8 | x8 | x8 | x8 | x8 | x8 | x8 | x8 | x8 | x8 | x8 | x8 | x8 | x8 | %540
 x8 | x8 | x8 | x8 | x8 | x8 | x8 | x8 |] %548

